%
(Header)
(Generated by gcodetools from Inkscape.)
(Using default header. To add your own header create file "header" in the output dir.)
M3
(Header end.)
G21 (All units in mm)

(Start cutting path id: path461)
(Change tool to Cylindrical cutter)
 
G00 Z10.000000
G00 X15.948000 Y1021.874100

G01 Z-0.125000 F1000(Penetrate)
G02 X17.011575 Y1021.251189 Z-0.125000 I-1528.784647 J-2611.506945 F1000.000000
G03 X17.418700 Y1021.025800 Z-0.125000 I4.818733 J8.223791
G03 X18.632847 Y1020.399112 Z-0.125000 I88.794762 J170.541642
G02 X19.847000 Y1019.774600 Z-0.125000 I-145.676449 J-284.711334
G02 X20.261796 Y1007.127859 Z-0.125000 I-121.758679 J-10.323697
G03 X20.240800 Y994.490200 Z-0.125000 I364.137993 J-6.923831
G02 X20.029035 Y980.782015 Z-0.125000 I-223.192883 J-3.407828
G03 X20.096600 Y966.899800 Z-0.125000 I135.941116 J-6.279644
G03 X18.012314 Y965.822464 Z-0.125000 I73.606447 J-144.958787
G03 X15.948000 Y964.692100 Z-0.125000 I32.811278 J-62.371365
G02 X15.885650 Y964.659468 Z-0.125000 I-0.378189 J0.646735
G03 X15.823200 Y964.626900 Z-0.125000 I0.326158 J-0.701564
G02 X15.116660 Y964.229051 Z-0.125000 I-17.796757 J30.778932
G03 X14.337400 Y963.796500 Z-0.125000 I40.448350 J-73.787792
G03 X14.381379 Y977.406450 Z-0.125000 I-101.397622 J7.132705
G02 X14.264800 Y990.939100 Z-0.125000 I122.504705 J7.822166
G02 X15.327810 Y1006.391860 Z-0.125000 I352.476668 J-16.484249
G03 X15.938200 Y1021.877400 Z-0.125000 I-150.681852 J13.694197
G01 X15.943100 Y1021.875750 Z-0.125000
G01 X15.948000 Y1021.874100 Z-0.125000
G01 X15.948000 Y1021.874100 Z-0.125000
G00 Z10.000000

(Change tool to Cylindrical cutter)
 
G00 Z10.000000
G00 X42.949200 Y961.010600

G01 Z-0.125000 F1000(Penetrate)
G02 X50.062859 Y963.907551 Z-0.125000 I151.790727 J-362.549851 F1000.000000
G02 X57.287900 Y966.750000 Z-0.125000 I667.380716 J-1685.769221
G03 X65.034159 Y969.974075 Z-0.125000 I-72.113183 J184.179012
G02 X72.675200 Y973.331600 Z-0.125000 I1050.160059 J-2379.576436
G02 X73.310589 Y973.562719 Z-0.125000 I51.741848 J-141.259236
G03 X73.942400 Y973.798000 Z-0.125000 I-11.610034 J32.142861
G03 X74.230514 Y973.945531 Z-0.125000 I-0.544566 J1.418577
G02 X74.473400 Y974.102700 Z-0.125000 I14.062959 J-21.466425
G02 X79.912326 Y976.386461 Z-0.125000 I113.829389 J-263.473710
G02 X85.474800 Y978.489300 Z-0.125000 I43.484027 J-106.616438
G02 X101.211420 Y983.640165 Z-0.125000 I140.392159 J-402.303658
G03 X116.843200 Y989.064000 Z-0.125000 I-65.282814 J213.386250
G03 X118.558186 Y990.919618 Z-0.125000 I-1.036395 J2.678165
G03 X117.795400 Y993.372800 Z-0.125000 I-2.205592 J0.659379
G03 X103.839890 Y1001.896499 Z-0.125000 I-40.016764 J-49.831593
G03 X88.578300 Y1008.200200 Z-0.125000 I-118.896127 J-266.227335
G02 X71.030388 Y1015.212734 Z-0.125000 I196.317903 J516.720715
G02 X54.000300 Y1023.233600 Z-0.125000 I84.932832 J202.421128
G02 X48.482758 Y1026.197286 Z-0.125000 I149.747550 J285.405305
G02 X42.949200 Y1029.274100 Z-0.125000 I315.884531 J574.623290
G02 X39.326169 Y1031.324958 Z-0.125000 I438.571866 J779.003581
G02 X35.712200 Y1033.401800 Z-0.125000 I247.359430 J434.619628
G02 X27.206017 Y1038.402828 Z-0.125000 I469.849624 J808.895644
G02 X18.857700 Y1043.387400 Z-0.125000 I1662.051838 J2793.139553
G02 X17.659831 Y1044.165860 Z-0.125000 I9.882828 J16.518234
G02 X15.948000 Y1045.382500 Z-0.125000 I134.734903 J191.386602
G03 X12.494761 Y1047.781636 Z-0.125000 I-76.202191 J-105.998159
G03 X8.711900 Y1049.858800 Z-0.125000 I-13.538344 J-20.172385
G03 X7.148663 Y1050.457055 Z-0.125000 I-7.007408 J-15.968835
G03 X5.749000 Y1050.769600 Z-0.125000 I-2.292604 J-6.976596
G03 X5.108307 Y1050.999894 Z-0.125000 I-1.453558 J-3.037517
G03 X4.403100 Y1051.068600 Z-0.125000 I-0.585122 J-2.352256
G03 X3.148883 Y1050.721274 Z-0.125000 I0.138799 J-2.939402
G03 X2.196100 Y1049.829200 Z-0.125000 I1.204535 J-2.241357
G03 X1.730720 Y1048.881542 Z-0.125000 I1.358178 J-1.255080
G03 X1.803100 Y1047.911800 Z-0.125000 I2.004633 J-0.337949
G02 X0.653634 Y994.739216 Z-0.125000 I-1182.388193 J-1.038260
G03 X0.454500 Y941.611000 Z-0.125000 I657.746240 J-29.029826
G03 X1.417335 Y940.369327 Z-0.125000 I1.347870 J0.051040
G03 X2.889000 Y940.703600 Z-0.125000 I0.439009 J1.473927
G03 X4.060619 Y940.728885 Z-0.125000 I0.540684 J2.103634
G03 X4.905800 Y941.506900 Z-0.125000 I-0.384138 J1.265381
G03 X5.106038 Y941.538524 Z-0.125000 I-0.530717 J4.010193
G03 X5.305700 Y941.590700 Z-0.125000 I-0.252498 J1.374343
G03 X7.129674 Y942.425096 Z-0.125000 I-3.733552 J10.572262
G03 X8.711900 Y943.504700 Z-0.125000 I-5.928231 J10.387411
G02 X8.995692 Y943.707477 Z-0.125000 I1.831355 J-2.263057
G03 X9.273800 Y943.919500 Z-0.125000 I-1.023880 J1.631417
G03 X12.613455 Y945.386524 Z-0.125000 I-14.062183 J36.547163
G03 X15.948000 Y947.144700 Z-0.125000 I-33.876350 J68.290891
G03 X22.018857 Y950.728154 Z-0.125000 I-74.029976 J132.350969
G02 X27.817700 Y954.028600 Z-0.125000 I45.137657 J-72.561841
G02 X31.754207 Y955.995195 Z-0.125000 I65.558417 J-126.304274
G02 X35.712200 Y957.848100 Z-0.125000 I94.525548 J-196.762386
G02 X39.317971 Y959.459547 Z-0.125000 I91.416079 J-199.712565
G02 X42.949200 Y961.010600 Z-0.125000 I103.795626 J-237.973792
G01 X42.949200 Y961.010600 Z-0.125000
G00 Z10.000000

(Change tool to Cylindrical cutter)
 
G00 Z10.000000
G00 X42.949200 Y1007.701600

G01 Z-0.125000 F1000(Penetrate)
G03 X43.384816 Y1007.473484 Z-0.125000 I150.659375 J287.172807 F1000.000000
G02 X43.826200 Y1007.241100 Z-0.125000 I-38.856834 J-74.339037
G02 X43.670263 Y992.907578 Z-0.125000 I-151.547649 J-5.518894
G03 X44.081900 Y978.596900 Z-0.125000 I82.324378 J-4.793253
G03 X43.515520 Y978.308610 Z-0.125000 I71.606619 J-141.380500
G02 X42.949200 Y978.020500 Z-0.125000 I-65.297799 J127.651727
G02 X40.378824 Y976.708172 Z-0.125000 I-7089.235682 J13882.044086
G02 X37.810400 Y975.401300 Z-0.125000 I-509.512044 J998.178054
G03 X37.827772 Y976.091861 Z-0.125000 I-23.022315 J0.924671
G03 X37.829000 Y976.861600 Z-0.125000 I-44.928089 J0.456522
G03 X37.770382 Y984.281375 Z-0.125000 I-1714.261016 J-9.832972
G02 X37.800600 Y991.706800 Z-0.125000 I262.681359 J2.643781
G03 X37.397716 Y1001.048277 Z-0.125000 I-76.519199 J1.379267
G02 X36.923700 Y1010.866800 Z-0.125000 I87.357891 J9.138144
G02 X39.940168 Y1009.290864 Z-0.125000 I-472.928472 J-908.898116
G02 X42.949200 Y1007.701600 Z-0.125000 I-280.017207 J-533.813484
G01 X42.949200 Y1007.701600 Z-0.125000
G00 Z10.000000

(Change tool to Cylindrical cutter)
 
G00 Z10.000000
G00 X49.464100 Y1004.318100

G01 Z-0.125000 F1000(Penetrate)
G03 X49.628412 Y1000.424654 Z-0.125000 I125.655421 J3.352755 F1000.000000
G02 X49.804900 Y996.597900 Z-0.125000 I-164.965608 J-9.525567
G02 X50.051591 Y989.300194 Z-0.125000 I-3959.160454 J-137.487899
G03 X50.810300 Y982.025200 Z-0.125000 I51.493092 J1.693156
G01 X46.950900 Y980.059700 Z-0.125000
G03 X47.099025 Y987.858326 Z-0.125000 I-59.251642 J5.026129
G02 X47.035900 Y995.553400 Z-0.125000 I100.015683 J4.668254
G02 X47.238127 Y1000.364205 Z-0.125000 I187.095710 J-5.455097
G03 X47.394300 Y1005.368700 Z-0.125000 I-105.582254 J5.799545
G03 X48.427056 Y1004.839983 Z-0.125000 I29.439493 J56.231816
G02 X49.464100 Y1004.318100 Z-0.125000 I-117.238494 J-234.258491
G01 X49.464100 Y1004.318100 Z-0.125000
G00 Z10.000000

(Change tool to Cylindrical cutter)
 
G00 Z10.000000
G00 X57.421500 Y1000.573300

G01 Z-0.125000 F1000(Penetrate)
G03 X57.593778 Y998.235747 Z-0.125000 I89.079703 J5.390063 F1000.000000
G02 X57.746200 Y995.970600 Z-0.125000 I-57.964787 J-5.038158
G02 X57.916462 Y990.879212 Z-0.125000 I-186.174013 J-8.774414
G03 X58.162200 Y985.772800 Z-0.125000 I90.240707 J1.783575
G02 X55.604545 Y984.469013 Z-0.125000 I-24198.284343 J47504.041885
G03 X53.048100 Y983.165500 Z-0.125000 I4871.473012 J-9558.572445
G03 X53.316893 Y988.786034 Z-0.125000 I-41.095354 J4.782017
G03 X53.201200 Y994.424200 Z-0.125000 I-11367.612594 J-230.439681
G02 X53.166903 Y998.409300 Z-0.125000 I156.340451 J3.338209
G03 X53.164000 Y1002.502400 Z-0.125000 I-422.312366 J1.747022
G03 X55.287358 Y1001.517745 Z-0.125000 I51.802138 J108.926838
G03 X57.421500 Y1000.573300 Z-0.125000 I61.044155 J135.056743
G01 X57.421500 Y1000.573300 Z-0.125000
G00 Z10.000000

(Change tool to Cylindrical cutter)
 
G00 Z10.000000
G00 X62.807200 Y998.384100

G01 Z-0.125000 F1000(Penetrate)
G03 X64.265701 Y997.875837 Z-0.125000 I13.418935 J36.159907 F1000.000000
G03 X65.731900 Y997.413300 Z-0.125000 I24.540472 J75.235916
G02 X65.750281 Y996.975655 Z-0.125000 I-56.059104 J-2.573649
G02 X65.760300 Y996.556500 Z-0.125000 I-14.781148 J-0.563017
G02 X65.705358 Y993.062722 Z-0.125000 I-87.415920 J-0.372653
G03 X65.972600 Y989.523600 Z-0.125000 I15.998655 J-0.571580
G02 X63.601767 Y988.407483 Z-0.125000 I-815.857837 J1729.952193
G03 X61.287000 Y987.307600 Z-0.125000 I127.578662 J-271.482381
G03 X61.373814 Y990.774439 Z-0.125000 I-54.666954 J3.103437
G03 X61.317800 Y994.230200 Z-0.125000 I-180.564034 J-1.198409
G02 X61.307680 Y996.537719 Z-0.125000 I58.037412 J1.408325
G03 X61.333800 Y998.975000 Z-0.125000 I-255.315815 J3.955009
G02 X62.067630 Y998.675304 Z-0.125000 I-13.097200 J-33.117881
G03 X62.807200 Y998.384100 Z-0.125000 I6.499397 J15.421731
G01 X62.807200 Y998.384100 Z-0.125000
G00 Z10.000000

(Change tool to Cylindrical cutter)
 
G00 Z10.000000
G00 X74.820300 Y994.187900

G01 Z-0.125000 F1000(Penetrate)
G02 X72.157081 Y992.632500 Z-0.125000 I-24.781739 J39.374573 F1000.000000
G02 X69.356600 Y991.171800 Z-0.125000 I-51.172291 J94.693520
G03 X69.447870 Y993.336903 Z-0.125000 I-29.407456 J2.324144
G02 X69.493700 Y995.395000 Z-0.125000 I61.004431 J-0.328904
G02 X69.519877 Y995.804939 Z-0.125000 I14.794056 J-0.738876
G03 X69.553100 Y996.242400 Z-0.125000 I-119.173534 J9.270678
G02 X72.240310 Y995.327006 Z-0.125000 I-17.012775 J-54.344282
G02 X74.820300 Y994.187900 Z-0.125000 I-7.806951 J-21.173452
G01 X74.820300 Y994.187900 Z-0.125000
G00 Z10.000000

(Change tool to Cylindrical cutter)
 
G00 Z10.000000
G00 X26.624700 Y1016.277800

G01 Z-0.125000 F1000(Penetrate)
G01 X28.776100 Y1015.149200 Z-0.125000 F1000.000000
G02 X28.351796 Y1004.792428 Z-0.125000 I-48.257128 J-3.210042
G03 X27.405300 Y994.535100 Z-0.125000 I90.527426 J-13.525757
G02 X26.731148 Y982.480393 Z-0.125000 I-291.723110 J10.268236
G03 X27.086700 Y970.241000 Z-0.125000 I57.919367 J-4.442313
G02 X25.362603 Y969.443741 Z-0.125000 I-987.456531 J2133.143868
G03 X23.643400 Y968.637700 Z-0.125000 I70.038527 J-151.621357
G03 X24.070333 Y980.838242 Z-0.125000 I-67.979083 J8.486529
G02 X23.731000 Y992.459400 Z-0.125000 I231.749130 J12.582508
G02 X23.969020 Y1005.031986 Z-0.125000 I276.408583 J1.055677
G03 X23.970900 Y1017.645600 Z-0.125000 I-151.777064 J6.329432
G02 X25.298268 Y1016.961971 Z-0.125000 I-226.324193 J-441.072658
G03 X26.624700 Y1016.277800 Z-0.125000 I382.492414 J739.926604
G01 X26.624700 Y1016.277800 Z-0.125000
G00 Z10.000000

(Change tool to Cylindrical cutter)
 
G00 Z10.000000
G00 X33.633400 Y1012.596100

G01 Z-0.125000 F1000(Penetrate)
G03 X34.017911 Y1005.560245 Z-0.125000 I63.688510 J-0.047845 F1000.000000
G02 X34.488300 Y998.595800 Z-0.125000 I-81.642592 J-9.012373
G02 X34.365918 Y986.359641 Z-0.125000 I-175.980280 J-4.358591
G03 X35.203300 Y974.105300 Z-0.125000 I54.414015 J-2.437480
G02 X32.628456 Y972.848015 Z-0.125000 I-161.285005 J327.036893
G02 X30.043200 Y971.620600 Z-0.125000 I-88.388574 J182.832995
G03 X30.762627 Y984.524734 Z-0.125000 I-81.405819 J11.010634
G02 X30.870700 Y997.219300 Z-0.125000 I201.071727 J4.635959
G02 X31.559848 Y1005.324816 Z-0.125000 I90.296667 J-3.595153
G03 X32.094600 Y1013.405400 Z-0.125000 I-63.012793 J8.228013
G02 X32.864107 Y1013.000431 Z-0.125000 I-68.534196 J-131.159859
G03 X33.633400 Y1012.596100 Z-0.125000 I58.609364 J110.577939
G01 X33.633400 Y1012.596100 Z-0.125000
G00 Z10.000000

(End cutting path id: path461)


(Start cutting path id: path459)
(Change tool to Cylindrical cutter)
 
G00 Z10.000000
G00 X15.948000 Y887.129500

G01 Z-0.125000 F1000(Penetrate)
G03 X17.011845 Y886.507675 Z-0.125000 I197.267518 J336.272545 F1000.000000
G03 X17.418700 Y886.283800 Z-0.125000 I4.803334 J8.247635
G03 X18.632785 Y885.655642 Z-0.125000 I138.053630 J265.338724
G02 X19.847000 Y885.029300 Z-0.125000 I-294.458264 J-572.320943
G02 X20.261839 Y872.386889 Z-0.125000 I-121.670854 J-10.320432
G03 X20.240800 Y859.747400 Z-0.125000 I364.152425 J-6.925910
G02 X20.029022 Y846.038051 Z-0.125000 I-223.211893 J-3.408194
G03 X20.096600 Y832.154500 Z-0.125000 I135.953854 J-6.280184
G03 X18.011921 Y831.077754 Z-0.125000 I71.431110 J-140.853629
G03 X15.948000 Y829.950100 Z-0.125000 I34.524529 J-65.642105
G02 X15.885137 Y829.916043 Z-0.125000 I-0.619024 J1.067554
G02 X15.823200 Y829.885000 Z-0.125000 I-5.342514 J10.582136
G02 X15.116107 Y829.485542 Z-0.125000 I-19.986063 J34.552428
G03 X14.337400 Y829.054600 Z-0.125000 I154.004355 J-279.202814
G03 X14.381302 Y842.665382 Z-0.125000 I-101.394906 J7.132513
G02 X14.264800 Y856.193700 Z-0.125000 I122.432660 J7.819015
G02 X15.327853 Y871.648759 Z-0.125000 I352.589576 J-16.488248
G03 X15.938200 Y887.135400 Z-0.125000 I-150.709105 J13.694976
G01 X15.943227 Y887.132180 Z-0.125000
G01 X15.948000 Y887.129500 Z-0.125000
G01 X15.948000 Y887.129500 Z-0.125000
G00 Z10.000000

(Change tool to Cylindrical cutter)
 
G00 Z10.000000
G00 X15.948000 Y812.402800

G01 Z-0.125000 F1000(Penetrate)
G03 X22.018752 Y815.984131 Z-0.125000 I-74.257688 J132.810936 F1000.000000
G02 X27.817700 Y819.283200 Z-0.125000 I45.279490 J-72.844071
G02 X31.754374 Y821.251642 Z-0.125000 I66.869379 J-128.810916
G02 X35.712200 Y823.105300 Z-0.125000 I90.290336 J-187.630775
G02 X39.317614 Y824.714456 Z-0.125000 I94.763435 J-207.479677
G02 X42.949200 Y826.265400 Z-0.125000 I105.091438 J-241.047863
G02 X50.062378 Y829.162433 Z-0.125000 I152.856605 J-365.132568
G02 X57.287900 Y832.008200 Z-0.125000 I764.825777 J-1931.329123
G03 X65.034048 Y835.231828 Z-0.125000 I-72.260921 J184.556337
G02 X72.675200 Y838.589600 Z-0.125000 I1127.139402 J-2554.614797
G03 X73.310608 Y838.819072 Z-0.125000 I-54.038133 J150.625978
G03 X73.942400 Y839.052700 Z-0.125000 I-20.864002 J57.392897
G03 X74.230520 Y839.201482 Z-0.125000 I-0.526099 J1.372175
G02 X74.473400 Y839.359900 Z-0.125000 I8.668501 J-13.024740
G02 X79.911982 Y841.641390 Z-0.125000 I116.227977 J-269.439616
G02 X85.474800 Y843.744100 Z-0.125000 I43.583698 J-106.892998
G02 X101.211841 Y848.896236 Z-0.125000 I140.988015 J-404.033341
G03 X116.843200 Y854.318700 Z-0.125000 I-65.695411 J214.621949
G03 X118.558336 Y856.177641 Z-0.125000 I-1.043342 J2.683329
G03 X117.795400 Y858.630900 Z-0.125000 I-2.205909 J0.659249
G03 X103.839795 Y867.153631 Z-0.125000 I-40.013895 J-49.833812
G03 X88.578300 Y873.455100 Z-0.125000 I-118.572782 J-265.539212
G02 X71.030379 Y880.467486 Z-0.125000 I196.224658 J516.498428
G02 X54.000300 Y888.488200 Z-0.125000 I84.946435 J202.453575
G02 X48.483305 Y891.452109 Z-0.125000 I148.626825 J283.269304
G02 X42.949200 Y894.532300 Z-0.125000 I298.824256 J543.401940
G02 X39.326580 Y896.581493 Z-0.125000 I495.501640 J880.188453
G02 X35.712200 Y898.659000 Z-0.125000 I213.490548 J375.606729
G02 X27.206536 Y903.657614 Z-0.125000 I455.806344 J785.338087
G02 X18.857700 Y908.642800 Z-0.125000 I1605.501988 J2698.264398
G02 X17.659330 Y909.422536 Z-0.125000 I10.446248 J17.365503
G02 X15.948000 Y910.637100 Z-0.125000 I118.328437 J168.538619
G03 X12.494387 Y913.038461 Z-0.125000 I-73.216620 J-101.615221
G03 X8.711900 Y915.116900 Z-0.125000 I-13.625537 J-20.315664
G03 X7.148958 Y915.713318 Z-0.125000 I-6.970603 J-15.920708
G03 X5.749000 Y916.027800 Z-0.125000 I-2.342684 J-7.155480
G03 X5.108330 Y916.256205 Z-0.125000 I-1.420092 J-2.970594
G03 X4.403100 Y916.323200 Z-0.125000 I-0.583181 J-2.393560
G03 X3.148830 Y915.977081 Z-0.125000 I0.128586 J-2.911650
G03 X2.196100 Y915.084000 Z-0.125000 I1.210883 J-2.246481
G03 X1.731049 Y914.139595 Z-0.125000 I1.346788 J-1.249900
G03 X1.803100 Y913.166500 Z-0.125000 I2.016104 J-0.339936
G02 X0.653647 Y859.995592 Z-0.125000 I-1182.328299 J-1.038208
G03 X0.454500 Y806.869200 Z-0.125000 I657.715770 J-29.029049
G03 X1.419040 Y805.624998 Z-0.125000 I1.350532 J0.051000
G03 X2.889000 Y805.958300 Z-0.125000 I0.438863 J1.472613
G03 X4.061606 Y805.985849 Z-0.125000 I0.536754 J2.122836
G03 X4.905800 Y806.761800 Z-0.125000 I-0.383816 J1.264766
G03 X5.105886 Y806.794913 Z-0.125000 I-1.714855 J10.983235
G03 X5.305700 Y806.848100 Z-0.125000 I-0.204910 J1.171728
G03 X7.130309 Y807.682671 Z-0.125000 I-3.762218 J10.637115
G03 X8.711900 Y808.759300 Z-0.125000 I-5.953250 J10.445464
G02 X8.995006 Y808.962227 Z-0.125000 I1.856295 J-2.290800
G03 X9.273800 Y809.177600 Z-0.125000 I-0.991251 J1.571273
G03 X12.612568 Y810.641910 Z-0.125000 I-13.881599 J36.189885
G03 X15.948000 Y812.402800 Z-0.125000 I-33.010571 J66.567171
G01 X15.948000 Y812.402800 Z-0.125000
G00 Z10.000000

(Change tool to Cylindrical cutter)
 
G00 Z10.000000
G00 X42.949200 Y872.958900

G01 Z-0.125000 F1000(Penetrate)
G03 X43.385346 Y872.729628 Z-0.125000 I19.620263 J36.794330 F1000.000000
G02 X43.826200 Y872.499200 Z-0.125000 I-32.124991 J-61.998312
G02 X43.670245 Y858.164526 Z-0.125000 I-151.569661 J-5.519174
G03 X44.081900 Y843.854200 Z-0.125000 I82.323075 J-4.792955
G02 X43.515535 Y843.564605 Z-0.125000 I-103.183959 J201.097662
G03 X42.949200 Y843.275100 Z-0.125000 I110.858806 J-217.560482
G03 X40.379763 Y841.965575 Z-0.125000 I806.543507 J-1585.773719
G02 X37.810400 Y840.655900 Z-0.125000 I-871.629088 J1706.893519
G03 X37.827736 Y841.348537 Z-0.125000 I-23.360849 J0.931230
G03 X37.829000 Y842.119700 Z-0.125000 I-45.010239 J0.459365
G03 X37.770365 Y849.540298 Z-0.125000 I-1713.291680 J-9.827413
G02 X37.800600 Y856.961600 Z-0.125000 I262.395750 J2.641675
G03 X37.397675 Y866.305335 Z-0.125000 I-76.557393 J1.379209
G02 X36.923700 Y876.124900 Z-0.125000 I87.386729 J9.139240
G02 X39.940727 Y874.546923 Z-0.125000 I-445.621528 J-855.683391
G02 X42.949200 Y872.958900 Z-0.125000 I-392.001238 J-746.280906
G01 X42.949200 Y872.958900 Z-0.125000
G00 Z10.000000

(Change tool to Cylindrical cutter)
 
G00 Z10.000000
G00 X26.624700 Y881.532400

G01 Z-0.125000 F1000(Penetrate)
G02 X27.699953 Y880.969731 Z-0.125000 I-33.558004 J-65.437655 F1000.000000
G03 X28.776100 Y880.404000 Z-0.125000 I45.010957 J84.314486
G02 X28.351778 Y870.046950 Z-0.125000 I-48.259036 J-3.210074
G03 X27.405300 Y859.789800 Z-0.125000 I90.526895 J-13.525608
G02 X26.731209 Y847.739497 Z-0.125000 I-291.623146 J10.269314
G03 X27.086700 Y835.499100 Z-0.125000 I57.919992 J-4.443225
G02 X25.362130 Y834.698584 Z-0.125000 I-289.180754 J620.730720
G03 X23.643400 Y833.892200 Z-0.125000 I72.623452 J-157.024781
G03 X24.070366 Y846.095067 Z-0.125000 I-67.992625 J8.487894
G02 X23.731000 Y857.716600 Z-0.125000 I231.743858 J12.582977
G02 X23.968926 Y870.285273 Z-0.125000 I276.328180 J1.055673
G03 X23.970900 Y882.903700 Z-0.125000 I-151.869350 J6.332972
G03 X25.298374 Y882.218003 Z-0.125000 I1020.977609 J1974.898367
G02 X26.624700 Y881.532400 Z-0.125000 I-540.748623 J-1047.715317
G01 X26.624700 Y881.532400 Z-0.125000
G00 Z10.000000

(Change tool to Cylindrical cutter)
 
G00 Z10.000000
G00 X33.633400 Y877.853300

G01 Z-0.125000 F1000(Penetrate)
G03 X34.018159 Y870.813314 Z-0.125000 I63.722760 J-0.047844 F1000.000000
G02 X34.488300 Y863.853800 Z-0.125000 I-81.596772 J-9.007803
G02 X34.365755 Y851.615290 Z-0.125000 I-175.951830 J-4.358048
G03 X35.203300 Y839.363400 Z-0.125000 I54.378954 J-2.437201
G02 X32.628046 Y838.103259 Z-0.125000 I-135.587506 J273.828262
G02 X30.043200 Y836.875400 Z-0.125000 I-90.072203 J186.282228
G03 X30.762599 Y849.783121 Z-0.125000 I-81.451624 J11.013534
G02 X30.870700 Y862.477300 Z-0.125000 I201.078317 J4.635210
G02 X31.559844 Y870.581165 Z-0.125000 I90.256708 J-3.594094
G03 X32.094600 Y878.660100 Z-0.125000 I-62.986351 J8.226324
G02 X32.863954 Y878.256837 Z-0.125000 I-30.718624 J-59.541166
G03 X33.633400 Y877.853300 Z-0.125000 I32.653933 J61.327695
G01 X33.633400 Y877.853300 Z-0.125000
G00 Z10.000000

(Change tool to Cylindrical cutter)
 
G00 Z10.000000
G00 X49.464100 Y869.572800

G01 Z-0.125000 F1000(Penetrate)
G03 X49.628347 Y865.681832 Z-0.125000 I125.493815 J3.348443 F1000.000000
G02 X49.804900 Y861.852700 Z-0.125000 I-164.616735 J-9.508756
G02 X50.051466 Y854.556857 Z-0.125000 I-3822.078364 J-132.820860
G03 X50.810300 Y847.282500 Z-0.125000 I51.440226 J1.689295
G01 X46.950900 Y845.315200 Z-0.125000
G03 X47.099051 Y853.114740 Z-0.125000 I-59.249207 J5.026609
G02 X47.035900 Y860.810700 Z-0.125000 I100.009799 J4.668898
G02 X47.238214 Y865.623341 Z-0.125000 I187.029567 J-5.451798
G03 X47.394300 Y870.623500 Z-0.125000 I-105.481606 J5.795244
G03 X48.426511 Y870.096319 Z-0.125000 I43.057697 J83.032040
G02 X49.464100 Y869.572800 Z-0.125000 I-203.255365 J-404.132388
G01 X49.464100 Y869.572800 Z-0.125000
G00 Z10.000000

(Change tool to Cylindrical cutter)
 
G00 Z10.000000
G00 X57.421500 Y865.827900

G01 Z-0.125000 F1000(Penetrate)
G03 X57.593685 Y863.492935 Z-0.125000 I88.777379 J5.372810 F1000.000000
G02 X57.746200 Y861.226400 Z-0.125000 I-57.785635 J-5.026778
G02 X57.916467 Y856.135610 Z-0.125000 I-186.427103 J-8.783484
G03 X58.162200 Y851.027400 Z-0.125000 I90.408972 J1.789161
G02 X55.604666 Y849.725775 Z-0.125000 I-2505.086720 J4919.017955
G03 X53.048100 Y848.423700 Z-0.125000 I1176.118073 J-2312.413543
G03 X53.316897 Y854.044209 Z-0.125000 I-41.093805 J4.781965
G03 X53.201200 Y859.682200 Z-0.125000 I-11374.272486 J-230.590764
G02 X53.166901 Y863.667489 Z-0.125000 I156.269581 J3.337705
G03 X53.164000 Y867.757200 Z-0.125000 I-421.403713 J1.745922
G03 X55.286766 Y866.774334 Z-0.125000 I51.070890 J107.517663
G03 X57.421500 Y865.827900 Z-0.125000 I74.031567 J164.101575
G01 X57.421500 Y865.827900 Z-0.125000
G00 Z10.000000

(Change tool to Cylindrical cutter)
 
G00 Z10.000000
G00 X62.807200 Y863.638700

G01 Z-0.125000 F1000(Penetrate)
G03 X64.265307 Y863.131957 Z-0.125000 I12.867991 J34.675282 F1000.000000
G03 X65.731900 Y862.667800 Z-0.125000 I33.440849 J103.113823
G02 X65.750206 Y862.233059 Z-0.125000 I-56.585539 J-2.600510
G02 X65.760300 Y861.811300 Z-0.125000 I-14.724518 J-0.563388
G02 X65.705392 Y858.318301 Z-0.125000 I-87.424861 J-0.372658
G03 X65.972600 Y854.781800 Z-0.125000 I15.982059 J-0.570785
G02 X63.601563 Y853.664910 Z-0.125000 I-645.699223 J1367.674461
G03 X61.287000 Y852.565500 Z-0.125000 I133.342456 J-283.709003
G03 X61.373876 Y856.030091 Z-0.125000 I-54.550539 J3.101266
G03 X61.317800 Y859.487500 Z-0.125000 I-180.696073 J-1.201582
G02 X61.307657 Y861.794114 Z-0.125000 I57.932290 J1.408076
G03 X61.333800 Y864.230500 Z-0.125000 I-255.030194 J3.954861
G02 X62.066880 Y863.932964 Z-0.125000 I-10.608420 J-27.189275
G03 X62.807200 Y863.638700 Z-0.125000 I7.450340 J17.665439
G01 X62.807200 Y863.638700 Z-0.125000
G00 Z10.000000

(Change tool to Cylindrical cutter)
 
G00 Z10.000000
G00 X74.820300 Y859.446000

G01 Z-0.125000 F1000(Penetrate)
G02 X72.155970 Y857.887447 Z-0.125000 I-24.315088 J38.509795 F1000.000000
G02 X69.356600 Y856.429900 Z-0.125000 I-48.859039 J90.421821
G03 X69.447905 Y858.593293 Z-0.125000 I-29.268848 J2.318897
G02 X69.493700 Y860.649800 Z-0.125000 I60.614990 J-0.321042
G02 X69.519907 Y861.061577 Z-0.125000 I14.431578 J-0.711752
G03 X69.553100 Y861.500500 Z-0.125000 I-93.136593 J7.264077
G02 X72.240294 Y860.585148 Z-0.125000 I-17.020919 J-54.370297
G02 X74.820300 Y859.446000 Z-0.125000 I-7.802077 J-21.161822
G01 X74.820300 Y859.446000 Z-0.125000
G00 Z10.000000

(End cutting path id: path459)


(Start cutting path id: path457)
(Change tool to Cylindrical cutter)
 
G00 Z10.000000
G00 X67.062000 Y799.985300

G01 Z-0.125000 F1000(Penetrate)
G03 X80.099130 Y796.070933 Z-0.125000 I73.447938 J220.956760 F1000.000000
G02 X92.677400 Y791.226500 Z-0.125000 I-16.654320 J-61.993472
G02 X80.182777 Y784.854835 Z-0.125000 I-22.603173 J28.887471
G03 X67.080600 Y779.377000 Z-0.125000 I16.792735 J-58.573910
G03 X55.348666 Y771.082734 Z-0.125000 I34.465568 J-61.194606
G02 X42.949200 Y763.770700 Z-0.125000 I-25.730964 J29.464293
G01 X42.949200 Y777.263200 Z-0.125000
G03 X48.956871 Y778.833183 Z-0.125000 I-3.717926 J26.506368
G03 X54.440100 Y781.258800 Z-0.125000 I-24.420795 J62.614808
G02 X60.255296 Y783.529335 Z-0.125000 I15.662738 J-31.532639
G03 X63.715200 Y788.387300 Z-0.125000 I-1.345767 J4.619549
G03 X60.171941 Y793.423165 Z-0.125000 I-5.766569 J-0.292926
G02 X54.337500 Y796.286100 Z-0.125000 I20.555477 J49.267016
G03 X50.624528 Y798.272328 Z-0.125000 I-38.813481 J-68.092747
G02 X46.873000 Y800.194400 Z-0.125000 I103.385259 J206.411052
G03 X44.720231 Y801.284729 Z-0.125000 I-40.390773 J-77.078038
G03 X42.949200 Y801.697000 Z-0.125000 I-1.781065 J-3.640957
G01 X42.949200 Y811.736600 Z-0.125000
G02 X54.803957 Y805.441263 Z-0.125000 I-104.516611 J-211.124872
G03 X67.062000 Y799.985300 Z-0.125000 I33.905948 J59.679109
G01 X67.062000 Y799.985300 Z-0.125000
G00 Z10.000000

(Change tool to Cylindrical cutter)
 
G00 Z10.000000
G00 X42.949200 Y795.784100

G01 Z-0.125000 F1000(Penetrate)
G03 X45.601350 Y794.432958 Z-0.125000 I9.463761 J15.297860 F1000.000000
G02 X48.034100 Y793.317300 Z-0.125000 I-12.175583 J-29.759671
G02 X51.136984 Y791.690874 Z-0.125000 I-57.908805 J-114.251027
G02 X54.175500 Y789.963500 Z-0.125000 I-40.685676 J-75.103773
G02 X54.921652 Y789.439545 Z-0.125000 I-3.240212 J-5.407582
G03 X56.610000 Y788.168900 Z-0.125000 I16.951431 J20.766912
G02 X49.875449 Y784.486288 Z-0.125000 I-34.372132 J54.858601
G03 X42.949200 Y781.165700 Z-0.125000 I274.839820 J-582.158630
G01 X42.949200 Y795.784100 Z-0.125000
G01 X42.949200 Y795.784100 Z-0.125000
G00 Z10.000000

(Change tool to Cylindrical cutter)
 
G00 Z10.000000
G00 X35.712200 Y761.214200

G01 Z-0.125000 F1000(Penetrate)
G03 X39.326596 Y759.136646 Z-0.125000 I216.072640 J371.726572 F1000.000000
G03 X42.949200 Y757.087500 Z-0.125000 I501.005094 J881.480365
G01 X42.949200 Y759.464500 Z-0.125000
G03 X56.948276 Y765.261587 Z-0.125000 I-3.140871 J27.386075
G02 X68.876100 Y773.921200 Z-0.125000 I106.456802 J-134.089949
G02 X84.882008 Y780.945800 Z-0.125000 I28.352269 J-42.854648
G03 X100.041900 Y789.822900 Z-0.125000 I-7.453435 J30.111847
G03 X100.882216 Y791.907999 Z-0.125000 I-2.251134 J2.119107
G03 X99.772800 Y793.983600 Z-0.125000 I-2.445984 J0.026907
G03 X87.739551 Y799.761421 Z-0.125000 I-28.061659 J-43.023448
G03 X74.863600 Y803.710000 Z-0.125000 I-106.217758 J-323.398357
G02 X58.606313 Y810.438087 Z-0.125000 I21.063005 J73.900730
G03 X42.949200 Y818.157400 Z-0.125000 I-86.417022 J-155.541651
G01 X42.949200 Y826.265300 Z-0.125000
G03 X39.317628 Y824.714450 Z-0.125000 I101.253012 J-242.128068
G03 X35.712200 Y823.105300 Z-0.125000 I91.126445 J-209.019723
G01 X35.712200 Y761.214200 Z-0.125000
G01 X35.712200 Y761.214200 Z-0.125000
G00 Z10.000000

(End cutting path id: path457)


(Start cutting path id: path455)
(Change tool to Cylindrical cutter)
 
G00 Z10.000000
G00 X64.386800 Y941.769400

G01 Z-0.125000 F1000(Penetrate)
G03 X73.401359 Y937.493746 Z-0.125000 I43.057541 J79.139471 F1000.000000
G02 X82.640400 Y933.625900 Z-0.125000 I-210.493735 J-515.770363
G03 X89.011741 Y931.261812 Z-0.125000 I27.212823 J63.572402
G02 X95.340200 Y928.937100 Z-0.125000 I-22.145156 J-70.060944
G02 X81.659424 Y921.134575 Z-0.125000 I-91.313625 J144.212262
G02 X67.446100 Y914.077400 Z-0.125000 I-319.169704 J624.974027
G03 X55.861989 Y907.228146 Z-0.125000 I34.759710 J-72.009638
G02 X42.949200 Y902.022200 Z-0.125000 I-17.328611 J24.364390
G01 X42.949200 Y916.878500 Z-0.125000
G03 X53.642318 Y920.179867 Z-0.125000 I-1.115085 J22.579930
G02 X63.481500 Y925.129500 Z-0.125000 I34.497785 J-56.322518
G03 X64.789709 Y926.132338 Z-0.125000 I-1.147914 J2.852164
G03 X65.357600 Y927.521700 Z-0.125000 I-2.355418 J1.773500
G02 X65.349889 Y928.430983 Z-0.125000 I5.406073 J0.500520
G03 X65.304500 Y928.782200 Z-0.125000 I-0.872051 J0.065843
G03 X64.245078 Y930.349184 Z-0.125000 I-3.331852 J-1.111007
G02 X62.791300 Y931.583300 Z-0.125000 I3078.471050 J3627.886341
G03 X59.459177 Y933.720666 Z-0.125000 I-9.786916 J-11.591616
G03 X55.767500 Y935.241900 Z-0.125000 I-17.477248 J-37.173126
G03 X51.802145 Y936.436789 Z-0.125000 I-14.356796 J-40.467275
G03 X47.765900 Y937.412400 Z-0.125000 I-69.110923 J-277.084831
G02 X45.431031 Y938.078039 Z-0.125000 I5.938936 J25.259921
G03 X42.949200 Y938.702500 Z-0.125000 I-5.234607 J-15.560121
G01 X42.949200 Y951.606700 Z-0.125000
G02 X54.810102 Y947.982809 Z-0.125000 I1.068281 J-17.725703
G03 X64.386800 Y941.769400 Z-0.125000 I44.686389 J58.387955
G01 X64.386800 Y941.769400 Z-0.125000
G00 Z10.000000

(Change tool to Cylindrical cutter)
 
G00 Z10.000000
G00 X42.949200 Y932.670200

G01 Z-0.125000 F1000(Penetrate)
G03 X46.299719 Y931.933090 Z-0.125000 I7.441711 J25.842737 F1000.000000
G02 X49.024300 Y931.397900 Z-0.125000 I-5.122998 J-33.283331
G02 X52.290311 Y930.515270 Z-0.125000 I-13.754740 J-57.380858
G02 X55.477300 Y929.415400 Z-0.125000 I-12.251398 J-40.666965
G02 X56.691289 Y928.866241 Z-0.125000 I-4.462654 J-11.481721
G02 X57.846300 Y928.223500 Z-0.125000 I-10.546062 J-20.310502
G03 X50.535704 Y924.251204 Z-0.125000 I127.476326 J-243.320223
G02 X42.949200 Y920.668400 Z-0.125000 I-28.746772 J51.047091
G01 X42.949200 Y932.670200 Z-0.125000
G01 X42.949200 Y932.670200 Z-0.125000
G00 Z10.000000

(Change tool to Cylindrical cutter)
 
G00 Z10.000000
G00 X35.712200 Y898.659000

G01 Z-0.125000 F1000(Penetrate)
G03 X39.326596 Y896.581446 Z-0.125000 I216.072641 J371.726572 F1000.000000
G03 X42.949200 Y894.532300 Z-0.125000 I501.005090 J881.480367
G01 X42.949200 Y898.047000 Z-0.125000
G03 X54.906131 Y901.261846 Z-0.125000 I-0.241843 J24.742530
G02 X65.376200 Y907.042000 Z-0.125000 I265.277985 J-468.147120
G02 X84.499832 Y916.386565 Z-0.125000 I129.139820 J-240.043845
G03 X103.107300 Y926.757300 Z-0.125000 I-46.293158 J104.938893
G03 X104.351511 Y929.443863 Z-0.125000 I-1.638157 J2.390063
G03 X102.801100 Y931.909200 Z-0.125000 I-3.270202 J-0.336396
G03 X93.013718 Y936.318151 Z-0.125000 I-22.192014 J-36.195881
G02 X82.859000 Y940.031500 Z-0.125000 I29.220800 J95.650212
G02 X73.770833 Y943.944487 Z-0.125000 I802.930913 J1877.369643
G02 X64.924000 Y948.285800 Z-0.125000 I41.527622 J95.810802
G02 X55.056956 Y954.067946 Z-0.125000 I104.194544 J189.114573
G03 X42.949200 Y957.459500 Z-0.125000 I-11.875686 J-19.087919
G01 X42.949200 Y961.010600 Z-0.125000
G03 X39.318000 Y959.459585 Z-0.125000 I100.239703 J-239.704926
G03 X35.712200 Y957.848000 Z-0.125000 I87.417810 J-200.430463
G01 X35.712200 Y898.659000 Z-0.125000
G01 X35.712200 Y898.659000 Z-0.125000
G00 Z10.000000

(End cutting path id: path455)


(Start cutting path id: path453)
(Change tool to Cylindrical cutter)
 
G00 Z10.000000
G00 X65.404500 Y927.779100

G01 Z-0.125000 F1000(Penetrate)
G02 X65.380737 Y927.647951 Z-0.125000 I-0.878301 J0.091411 F1000.000000
G03 X65.357600 Y927.521700 Z-0.125000 I0.845349 J-0.220167
G01 X65.369344 Y927.521061 Z-0.125000
G03 X65.404500 Y927.779100 Z-0.125000 I-2.015358 J0.405996
G01 X65.404500 Y927.779100 Z-0.125000
G00 Z10.000000

(End cutting path id: path453)


(Start cutting path id: path451)
(Change tool to Cylindrical cutter)
 
G00 Z10.000000
G00 X15.948000 Y947.144700

G01 Z-0.125000 F1000(Penetrate)
G02 X12.613443 Y945.386479 Z-0.125000 I-37.224992 J66.557921 F1000.000000
G02 X9.273800 Y943.919500 Z-0.125000 I-17.391758 J35.058204
G02 X8.995772 Y943.707541 Z-0.125000 I-1.297872 J1.414100
G03 X8.711900 Y943.504700 Z-0.125000 I1.539258 J-2.454223
G01 X8.711900 Y915.116900 Z-0.125000
G02 X12.494326 Y913.038524 Z-0.125000 I-9.839046 J-22.387030
G02 X15.948000 Y910.637200 Z-0.125000 I-69.920277 J-104.246205
G01 X15.948000 Y947.144700 Z-0.125000
G01 X15.948000 Y947.144700 Z-0.125000
G00 Z10.000000

(End cutting path id: path451)


(Start cutting path id: path449)
(Change tool to Cylindrical cutter)
 
G00 Z10.000000
G00 X15.948000 Y812.402800

G01 Z-0.125000 F1000(Penetrate)
G02 X12.612579 Y810.641956 Z-0.125000 I-36.332595 J64.782373 F1000.000000
G02 X9.273800 Y809.177600 Z-0.125000 I-17.230257 J34.747118
G02 X8.995047 Y808.962241 Z-0.125000 I-1.267008 J1.351887
G03 X8.711900 Y808.759400 Z-0.125000 I1.574192 J-2.496467
G01 X8.711900 Y777.668700 Z-0.125000
G02 X12.494422 Y775.592360 Z-0.125000 I-9.737179 J-22.221995
G02 X15.948000 Y773.192400 Z-0.125000 I-72.137145 J-107.491289
G01 X15.948000 Y812.402800 Z-0.125000
G01 X15.948000 Y812.402800 Z-0.125000
G00 Z10.000000

(End cutting path id: path449)


(Start cutting path id: path447)
(Change tool to Cylindrical cutter)
 
G00 Z10.000000
G00 X15.948000 Y749.684700

G01 Z-0.125000 F1000(Penetrate)
G03 X17.011865 Y749.060980 Z-0.125000 I1189.700044 J2028.025004 F1000.000000
G03 X17.418700 Y748.836500 Z-0.125000 I4.552213 J7.769275
G03 X18.633108 Y748.209091 Z-0.125000 I80.015092 J153.387567
G02 X19.847000 Y747.585400 Z-0.125000 I-182.448129 J-356.592652
G02 X20.261780 Y734.936853 Z-0.125000 I-121.783299 J-10.324677
G03 X20.240800 Y722.302500 Z-0.125000 I363.962976 J-6.921571
G02 X20.028996 Y708.591155 Z-0.125000 I-223.279091 J-3.408234
G03 X20.096600 Y694.709600 Z-0.125000 I135.941178 J-6.278899
G03 X18.012347 Y693.632849 Z-0.125000 I70.070513 J-138.190222
G03 X15.948000 Y692.502800 Z-0.125000 I33.344372 J-63.363280
G02 X15.885512 Y692.469405 Z-0.125000 I-0.357985 J0.594693
G03 X15.823200 Y692.436800 Z-0.125000 I0.353727 J-0.751859
G02 X15.117355 Y692.040922 Z-0.125000 I-25.811412 J45.194247
G03 X14.337400 Y691.606400 Z-0.125000 I43.748953 J-79.445340
G03 X14.381377 Y705.216376 Z-0.125000 I-101.397554 J7.132700
G02 X14.264800 Y718.748900 Z-0.125000 I122.502600 J7.822074
G02 X15.327835 Y734.202411 Z-0.125000 I352.455621 J-16.481824
G03 X15.938200 Y749.687200 Z-0.125000 I-150.673378 J13.693530
G01 X15.943100 Y749.685950 Z-0.125000
G01 X15.948000 Y749.684700 Z-0.125000
G01 X15.948000 Y749.684700 Z-0.125000
G00 Z10.000000

(Change tool to Cylindrical cutter)
 
G00 Z10.000000
G00 X15.948000 Y674.954600

G01 Z-0.125000 F1000(Penetrate)
G03 X22.018857 Y678.538057 Z-0.125000 I-73.966468 J132.243278 F1000.000000
G02 X27.817700 Y681.838500 Z-0.125000 I45.116110 J-72.524046
G02 X31.754221 Y683.805089 Z-0.125000 I65.547623 J-126.283478
G02 X35.712200 Y685.657900 Z-0.125000 I94.400610 J-196.504916
G02 X39.317999 Y687.269434 Z-0.125000 I91.249182 J-199.329768
G02 X42.949200 Y688.820400 Z-0.125000 I103.555480 J-237.423206
G02 X50.062885 Y691.717436 Z-0.125000 I151.658753 J-362.216340
G02 X57.287900 Y694.559800 Z-0.125000 I664.586631 J-1678.711504
G03 X65.034073 Y697.784064 Z-0.125000 I-72.148254 J184.250541
G02 X72.675200 Y701.142300 Z-0.125000 I1089.409026 J-2468.403210
G02 X73.310504 Y701.372726 Z-0.125000 I60.287701 J-165.227196
G03 X73.942400 Y701.607900 Z-0.125000 I-11.139478 J30.897526
G03 X74.230514 Y701.755431 Z-0.125000 I-0.544566 J1.418577
G02 X74.473400 Y701.912600 Z-0.125000 I14.062959 J-21.466425
G02 X79.912329 Y704.196411 Z-0.125000 I113.663460 J-263.072801
G02 X85.474800 Y706.299300 Z-0.125000 I43.509959 J-106.682425
G02 X101.211514 Y711.450354 Z-0.125000 I140.576001 J-402.852621
G03 X116.843200 Y716.873800 Z-0.125000 I-65.387547 J213.701634
G03 X118.558558 Y718.729981 Z-0.125000 I-1.036810 J2.678851
G03 X117.795400 Y721.182600 Z-0.125000 I-2.204707 J0.659024
G03 X103.839053 Y729.708589 Z-0.125000 I-40.004078 J-49.797712
G03 X88.578300 Y736.010200 Z-0.125000 I-118.443719 J-265.208360
G02 X71.030351 Y743.022722 Z-0.125000 I196.244114 J516.538069
G02 X54.000300 Y751.043400 Z-0.125000 I84.959032 J202.480843
G02 X48.483289 Y754.007356 Z-0.125000 I148.874785 J283.727249
G02 X42.949200 Y757.087500 Z-0.125000 I298.510756 J542.845316
G02 X39.326612 Y759.136649 Z-0.125000 I496.747331 J882.401243
G02 X35.712200 Y761.214300 Z-0.125000 I211.898456 J372.814676
G02 X27.206552 Y766.212817 Z-0.125000 I455.331755 J784.544203
G02 X18.857700 Y771.198000 Z-0.125000 I1604.372570 J2696.379606
G02 X17.659949 Y771.975801 Z-0.125000 I9.788942 J16.385303
G02 X15.948000 Y773.192400 Z-0.125000 I135.055913 J191.858031
G03 X12.494492 Y775.592395 Z-0.125000 I-75.566024 J-105.052108
G03 X8.711900 Y777.668800 Z-0.125000 I-13.519395 J-20.144734
G03 X7.148696 Y778.266936 Z-0.125000 I-7.019973 J-16.004655
G03 X5.749000 Y778.579600 Z-0.125000 I-2.293691 J-6.978797
G03 X5.107754 Y778.811084 Z-0.125000 I-1.404437 J-2.886588
G03 X4.403100 Y778.878400 Z-0.125000 I-0.583139 J-2.382457
G03 X3.148884 Y778.531204 Z-0.125000 I0.138052 J-2.937674
G03 X2.196100 Y777.639100 Z-0.125000 I1.204704 J-2.241495
G03 X1.730720 Y776.691442 Z-0.125000 I1.358178 J-1.255080
G03 X1.803100 Y775.721700 Z-0.125000 I2.004633 J-0.337949
G02 X0.653648 Y722.550867 Z-0.125000 I-1182.325871 J-1.038209
G03 X0.454500 Y669.424400 Z-0.125000 I657.716483 J-29.029098
G03 X1.419088 Y668.180181 Z-0.125000 I1.350532 J0.050996
G03 X2.889000 Y668.513500 Z-0.125000 I0.438811 J1.472636
G03 X4.060941 Y668.539032 Z-0.125000 I0.540440 J2.102687
G03 X4.905800 Y669.316800 Z-0.125000 I-0.384822 J1.265769
G03 X5.106038 Y669.348424 Z-0.125000 I-0.530717 J4.010193
G03 X5.305700 Y669.400600 Z-0.125000 I-0.252498 J1.374343
G03 X7.129747 Y670.235349 Z-0.125000 I-3.756741 J10.619306
G03 X8.711900 Y671.314600 Z-0.125000 I-5.915106 J10.370702
G02 X8.994946 Y671.517328 Z-0.125000 I1.863152 J-2.302350
G03 X9.273800 Y671.732800 Z-0.125000 I-0.989507 J1.568751
G03 X12.613120 Y673.196955 Z-0.125000 I-13.925555 J36.300306
G03 X15.948000 Y674.954600 Z-0.125000 I-33.578917 J67.753761
G01 X15.948000 Y674.954600 Z-0.125000
G00 Z10.000000

(Change tool to Cylindrical cutter)
 
G00 Z10.000000
G00 X42.949200 Y735.511600

G01 Z-0.125000 F1000(Penetrate)
G03 X43.384863 Y735.283347 Z-0.125000 I104.427152 J198.788210 F1000.000000
G02 X43.826200 Y735.051100 Z-0.125000 I-39.718792 J-76.012888
G02 X43.670258 Y720.717377 Z-0.125000 I-151.550283 J-5.518932
G03 X44.081900 Y706.406800 Z-0.125000 I82.323203 J-4.793190
G03 X43.515535 Y706.118505 Z-0.125000 I64.265386 J-126.950962
G02 X42.949200 Y705.830300 Z-0.125000 I-61.904943 J120.944559
G02 X40.378854 Y704.518062 Z-0.125000 I-9450.058577 J18507.200876
G02 X37.810400 Y703.211100 Z-0.125000 I-518.887495 J1016.544996
G03 X37.827757 Y703.904369 Z-0.125000 I-23.380631 J0.932218
G03 X37.829000 Y704.671500 Z-0.125000 I-44.642415 J0.455905
G03 X37.770382 Y712.091275 Z-0.125000 I-1714.261016 J-9.832972
G02 X37.800600 Y719.516700 Z-0.125000 I262.681359 J2.643781
G03 X37.397648 Y728.859430 Z-0.125000 I-76.530585 J1.379292
G02 X36.923700 Y738.676600 Z-0.125000 I87.344549 J9.136800
G02 X39.940184 Y737.100719 Z-0.125000 I-466.498739 J-896.626700
G02 X42.949200 Y735.511600 Z-0.125000 I-284.255311 J-541.884336
G01 X42.949200 Y735.511600 Z-0.125000
G00 Z10.000000

(Change tool to Cylindrical cutter)
 
G00 Z10.000000
G00 X26.624700 Y744.087600

G01 Z-0.125000 F1000(Penetrate)
G01 X28.776100 Y742.959200 Z-0.125000 F1000.000000
G02 X28.351783 Y732.602176 Z-0.125000 I-48.259083 J-3.210077
G03 X27.405300 Y722.344900 Z-0.125000 I90.528196 J-13.525732
G02 X26.731148 Y710.290193 Z-0.125000 I-291.723110 J10.268236
G03 X27.086700 Y698.050800 Z-0.125000 I57.919367 J-4.442313
G02 X25.362602 Y697.253541 Z-0.125000 I-1200.012678 J2592.803857
G03 X23.643400 Y696.447500 Z-0.125000 I70.941102 J-153.546423
G03 X24.070333 Y708.648121 Z-0.125000 I-67.979373 J8.486565
G02 X23.731000 Y720.269200 Z-0.125000 I231.745941 J12.582428
G02 X23.968958 Y732.841056 Z-0.125000 I276.439491 J1.055769
G03 X23.970900 Y745.458900 Z-0.125000 I-151.873537 J6.332292
G02 X25.298802 Y744.771930 Z-0.125000 I-1716.476428 J-3319.551836
G03 X26.624700 Y744.087600 Z-0.125000 I297.012484 J573.839066
G01 X26.624700 Y744.087600 Z-0.125000
G00 Z10.000000

(Change tool to Cylindrical cutter)
 
G00 Z10.000000
G00 X33.633400 Y740.406100

G01 Z-0.125000 F1000(Penetrate)
G03 X34.017955 Y733.369764 Z-0.125000 I63.689922 J-0.047844 F1000.000000
G02 X34.488300 Y726.406500 Z-0.125000 I-81.628428 J-9.011237
G02 X34.365906 Y714.169336 Z-0.125000 I-176.005045 J-4.358826
G03 X35.203300 Y701.915200 Z-0.125000 I54.413047 J-2.437332
G02 X32.628556 Y700.658328 Z-0.125000 I-158.549885 J321.528958
G02 X30.043200 Y699.430700 Z-0.125000 I-91.382796 J189.113928
G03 X30.762628 Y712.334657 Z-0.125000 I-81.403861 J11.010501
G02 X30.870700 Y725.029200 Z-0.125000 I201.071299 J4.635953
G02 X31.559889 Y733.135292 Z-0.125000 I90.306506 J-3.595611
G03 X32.094600 Y741.215400 Z-0.125000 I-63.010594 J8.227553
G02 X32.864122 Y740.810386 Z-0.125000 I-71.334850 J-136.468964
G03 X33.633400 Y740.406100 Z-0.125000 I59.249631 J111.806519
G01 X33.633400 Y740.406100 Z-0.125000
G00 Z10.000000

(Change tool to Cylindrical cutter)
 
G00 Z10.000000
G00 X49.464100 Y732.128000

G01 Z-0.125000 F1000(Penetrate)
G03 X49.628400 Y728.235060 Z-0.125000 I125.620013 J3.351810 F1000.000000
G02 X49.804900 Y724.407900 Z-0.125000 I-164.891654 J-9.522076
G02 X50.051591 Y717.109994 Z-0.125000 I-3958.799091 J-137.472508
G03 X50.810300 Y709.835100 Z-0.125000 I51.490757 J1.693031
G03 X48.880277 Y708.852343 Z-0.125000 I809.206171 J-1591.572033
G02 X46.950900 Y707.870400 Z-0.125000 I-609.740416 J1195.664794
G03 X47.099043 Y715.667944 Z-0.125000 I-59.235912 J5.025580
G02 X47.035900 Y723.363300 Z-0.125000 I100.015721 J4.668594
G02 X47.238111 Y728.173982 Z-0.125000 I187.109215 J-5.455319
G03 X47.394300 Y733.179400 Z-0.125000 I-105.605352 J5.800450
G03 X48.427181 Y732.649920 Z-0.125000 I28.320119 J53.973144
G02 X49.464100 Y732.128000 Z-0.125000 I-121.491517 J-242.663122
G01 X49.464100 Y732.128000 Z-0.125000
G00 Z10.000000

(Change tool to Cylindrical cutter)
 
G00 Z10.000000
G00 X57.421500 Y728.383100

G01 Z-0.125000 F1000(Penetrate)
G03 X57.593803 Y726.045512 Z-0.125000 I89.095223 J5.392046 F1000.000000
G02 X57.746200 Y723.781400 Z-0.125000 I-57.974323 J-5.039424
G02 X57.916470 Y718.688885 Z-0.125000 I-186.307508 J-8.778368
G03 X58.162200 Y713.582700 Z-0.125000 I90.238295 J1.783618
G03 X55.604681 Y712.279270 Z-0.125000 I2541.886740 J-4990.633055
G03 X53.048100 Y710.975300 Z-0.125000 I10859.264055 J-21295.432095
G03 X53.316889 Y716.596059 Z-0.125000 I-41.099069 J4.782193
G03 X53.201200 Y722.234000 Z-0.125000 I-11340.173862 J-229.876344
G02 X53.166902 Y726.219771 Z-0.125000 I156.361025 J3.338522
G03 X53.164000 Y730.312200 Z-0.125000 I-422.096086 J1.746863
G03 X55.287210 Y729.327983 Z-0.125000 I54.165451 J114.066640
G03 X57.421500 Y728.383100 Z-0.125000 I59.977930 J132.594448
G01 X57.421500 Y728.383100 Z-0.125000
G00 Z10.000000

(Change tool to Cylindrical cutter)
 
G00 Z10.000000
G00 X62.807200 Y726.194000

G01 Z-0.125000 F1000(Penetrate)
G03 X64.265786 Y725.685759 Z-0.125000 I13.341175 J35.940329 F1000.000000
G03 X65.731900 Y725.223900 Z-0.125000 I23.909238 J73.339031
G02 X65.750288 Y724.785455 Z-0.125000 I-56.672940 J-2.596452
G02 X65.760300 Y724.366400 Z-0.125000 I-14.790284 J-0.563006
G02 X65.705358 Y720.872622 Z-0.125000 I-87.415920 J-0.372653
G03 X65.972600 Y717.333500 Z-0.125000 I15.998655 J-0.571580
G02 X63.601692 Y716.218774 Z-0.125000 I-496.346518 J1052.599215
G03 X61.287000 Y715.120700 Z-0.125000 I118.726819 J-253.259681
G03 X61.373851 Y718.584040 Z-0.125000 I-54.533601 J3.100303
G03 X61.317800 Y722.040200 Z-0.125000 I-180.600481 J-1.200366
G02 X61.307675 Y724.347244 Z-0.125000 I58.025123 J1.408211
G03 X61.333800 Y726.785700 Z-0.125000 I-255.429035 J3.956011
G02 X62.067298 Y726.486720 Z-0.125000 I-9.568561 J-24.524126
G03 X62.807200 Y726.194000 Z-0.125000 I6.138023 J14.433475
G01 X62.807200 Y726.194000 Z-0.125000
G00 Z10.000000

(Change tool to Cylindrical cutter)
 
G00 Z10.000000
G00 X74.820300 Y721.998600

G01 Z-0.125000 F1000(Penetrate)
G02 X72.156951 Y720.442472 Z-0.125000 I-24.689000 J39.198528 F1000.000000
G02 X69.356600 Y718.981700 Z-0.125000 I-51.186513 J94.711788
G03 X69.447877 Y721.147399 Z-0.125000 I-29.408942 J2.324262
G02 X69.493700 Y723.205000 Z-0.125000 I60.923382 J-0.327460
G02 X69.519858 Y723.614761 Z-0.125000 I14.807250 J-0.739535
G03 X69.553100 Y724.053100 Z-0.125000 I-114.930073 J8.936325
G02 X72.240193 Y723.138422 Z-0.125000 I-16.269006 J-52.198555
G02 X74.820300 Y721.998600 Z-0.125000 I-7.899749 J-21.372000
G01 X74.820300 Y721.998600 Z-0.125000
G00 Z10.000000

(End cutting path id: path447)


(Start cutting path id: path444)
(Change tool to Cylindrical cutter)
 
G00 Z10.000000
G00 X15.948000 Y615.936600

G01 Z-0.125000 F1000(Penetrate)
G02 X17.011532 Y615.316297 Z-0.125000 I-226.262175 J-389.156621 F1000.000000
G03 X17.418700 Y615.091800 Z-0.125000 I4.606283 J7.872881
G03 X18.632955 Y614.463143 Z-0.125000 I105.700196 J202.673544
G02 X19.847000 Y613.837300 Z-0.125000 I-253.424650 J-493.097824
G02 X20.261826 Y601.193611 Z-0.125000 I-121.694167 J-10.321302
G03 X20.240800 Y588.555400 Z-0.125000 I364.103012 J-6.924864
G02 X20.029032 Y574.847090 Z-0.125000 I-223.194347 J-3.407851
G03 X20.096600 Y560.964900 Z-0.125000 I135.939838 J-6.279606
G03 X18.012347 Y559.888149 Z-0.125000 I70.070513 J-138.190222
G03 X15.948000 Y558.758100 Z-0.125000 I33.344372 J-63.363280
G02 X15.885511 Y558.724705 Z-0.125000 I-0.346777 J0.573732
G03 X15.823200 Y558.692100 Z-0.125000 I0.337794 J-0.721394
G02 X15.116229 Y558.292999 Z-0.125000 I-19.390544 J33.522879
G03 X14.337400 Y557.861700 Z-0.125000 I93.470220 J-169.704957
G03 X14.381322 Y571.472248 Z-0.125000 I-101.395522 J7.132557
G02 X14.264800 Y585.001700 Z-0.125000 I122.451604 J7.819842
G02 X15.327890 Y600.457660 Z-0.125000 I352.512291 J-16.481912
G03 X15.938200 Y615.942500 Z-0.125000 I-150.684759 J13.693446
G01 X15.942884 Y615.940683 Z-0.125000
G01 X15.948000 Y615.936600 Z-0.125000
G01 X15.948000 Y615.936600 Z-0.125000
G00 Z10.000000

(Change tool to Cylindrical cutter)
 
G00 Z10.000000
G00 X15.948000 Y541.209800

G01 Z-0.125000 F1000(Penetrate)
G03 X22.019406 Y544.793261 Z-0.125000 I-74.158527 J132.580793 F1000.000000
G02 X27.817700 Y548.090300 Z-0.125000 I44.744389 J-71.942063
G02 X31.754766 Y550.060209 Z-0.125000 I63.899647 J-122.790791
G02 X35.712200 Y551.913200 Z-0.125000 I93.583130 J-194.713045
G02 X39.318000 Y553.524785 Z-0.125000 I91.023610 J-198.818878
G02 X42.949200 Y555.075800 Z-0.125000 I103.870903 J-238.153910
G02 X50.061983 Y557.969845 Z-0.125000 I156.403563 J-374.210124
G02 X57.287900 Y560.815100 Z-0.125000 I775.460668 J-1958.791095
G03 X65.034198 Y564.039305 Z-0.125000 I-72.190658 J184.358832
G02 X72.675200 Y567.396700 Z-0.125000 I1047.458737 J-2373.508556
G02 X73.310613 Y567.627952 Z-0.125000 I43.202738 J-117.719840
G03 X73.942400 Y567.863200 Z-0.125000 I-11.323705 J31.377197
G03 X74.230505 Y568.010689 Z-0.125000 I-0.542346 J1.414552
G02 X74.473400 Y568.167900 Z-0.125000 I13.811910 J-21.073564
G02 X79.911853 Y570.450257 Z-0.125000 I120.417678 J-279.313382
G02 X85.474800 Y572.554600 Z-0.125000 I43.224252 J-105.860560
G02 X101.211527 Y577.705695 Z-0.125000 I140.591601 J-402.897325
G03 X116.843200 Y583.129100 Z-0.125000 I-65.399556 J213.737636
G03 X118.558519 Y584.985231 Z-0.125000 I-1.036789 J2.678794
G03 X117.795400 Y587.437900 Z-0.125000 I-2.204789 J0.659059
G03 X103.839914 Y595.961612 Z-0.125000 I-40.017176 J-49.832106
G03 X88.578300 Y602.265500 Z-0.125000 I-118.927170 J-266.294796
G02 X71.030929 Y609.276499 Z-0.125000 I196.964211 J518.433451
G02 X54.000300 Y617.298700 Z-0.125000 I84.569652 J201.624632
G02 X48.483163 Y620.261338 Z-0.125000 I151.892281 J289.478028
G02 X42.949200 Y623.339400 Z-0.125000 I291.835363 J531.196441
G02 X39.326185 Y625.390161 Z-0.125000 I436.091375 J774.654532
G02 X35.712200 Y627.467000 Z-0.125000 I247.202867 J434.349822
G02 X27.206151 Y632.467999 Z-0.125000 I468.279232 J806.216507
G02 X18.857700 Y637.453300 Z-0.125000 I1623.645935 J2728.461525
G02 X17.660362 Y638.230002 Z-0.125000 I9.911758 J16.590879
G02 X15.948000 Y639.447700 Z-0.125000 I104.754247 J149.121256
G03 X12.494512 Y641.847644 Z-0.125000 I-75.671067 J-105.204937
G03 X8.711900 Y643.924100 Z-0.125000 I-13.518628 J-20.142884
G03 X7.148861 Y644.520725 Z-0.125000 I-6.911154 J-15.760101
G03 X5.749000 Y644.834900 Z-0.125000 I-2.344397 J-7.170127
G03 X5.108323 Y645.065054 Z-0.125000 I-1.452997 J-3.037884
G03 X4.403100 Y645.133700 Z-0.125000 I-0.585066 J-2.353772
G03 X3.149946 Y644.786455 Z-0.125000 I0.137391 J-2.930667
G03 X2.196100 Y643.891000 Z-0.125000 I1.205778 J-2.240153
G03 X1.731033 Y642.947649 Z-0.125000 I1.342510 J-1.248164
G03 X1.803100 Y641.974500 Z-0.125000 I2.015948 J-0.339950
G02 X0.653635 Y588.802542 Z-0.125000 I-1182.363381 J-1.038215
G03 X0.454500 Y535.676300 Z-0.125000 I657.717393 J-29.028840
G03 X1.419185 Y534.434137 Z-0.125000 I1.347591 J0.050885
G03 X2.889000 Y534.768800 Z-0.125000 I0.437000 J1.475720
G03 X4.060950 Y534.794296 Z-0.125000 I0.540524 J2.101980
G03 X4.905800 Y535.572100 Z-0.125000 I-0.384922 J1.265841
G03 X5.105600 Y535.602353 Z-0.125000 I-0.678514 J5.155937
G03 X5.305700 Y535.655900 Z-0.125000 I-0.190889 J1.113994
G03 X7.129652 Y536.490250 Z-0.125000 I-3.734159 J10.573980
G03 X8.711900 Y537.569900 Z-0.125000 I-5.924628 J10.381886
G02 X8.995210 Y537.771427 Z-0.125000 I2.001404 J-2.513709
G03 X9.273800 Y537.984700 Z-0.125000 I-1.052795 J1.663813
G03 X12.613443 Y539.451630 Z-0.125000 I-14.055693 J36.534484
G03 X15.948000 Y541.209800 Z-0.125000 I-33.871944 J68.283029
G01 X15.948000 Y541.209800 Z-0.125000
G00 Z10.000000

(Change tool to Cylindrical cutter)
 
G00 Z10.000000
G00 X42.949200 Y601.766900

G01 Z-0.125000 F1000(Penetrate)
G03 X43.385365 Y601.537131 Z-0.125000 I15.117428 J28.168095 F1000.000000
G02 X43.826200 Y601.306300 Z-0.125000 I-21.880749 J-42.323780
G02 X43.670256 Y586.972628 Z-0.125000 I-151.547965 J-5.518905
G03 X44.081900 Y572.662100 Z-0.125000 I82.321996 J-4.793180
G02 X43.515141 Y572.372631 Z-0.125000 I-77.889479 J151.802136
G02 X42.949200 Y572.085600 Z-0.125000 I-148.071061 J291.251595
G02 X40.378839 Y570.773317 Z-0.125000 I-6300.729015 J12338.034687
G02 X37.810400 Y569.466400 Z-0.125000 I-523.662475 J1025.958460
G03 X37.827774 Y570.157031 Z-0.125000 I-23.023465 J0.924717
G03 X37.829000 Y570.926700 Z-0.125000 I-44.924532 J0.456415
G03 X37.770383 Y578.346525 Z-0.125000 I-1714.286777 J-9.832922
G02 X37.800600 Y585.772000 Z-0.125000 I262.687950 J2.643807
G03 X37.397648 Y595.114730 Z-0.125000 I-76.530585 J1.379292
G02 X36.923700 Y604.931900 Z-0.125000 I87.344549 J9.136800
G02 X39.940574 Y603.354879 Z-0.125000 I-407.613222 J-783.446687
G02 X42.949200 Y601.766900 Z-0.125000 I-385.740910 J-734.478850
G01 X42.949200 Y601.766900 Z-0.125000
G00 Z10.000000

(Change tool to Cylindrical cutter)
 
G00 Z10.000000
G00 X26.624700 Y610.342800

G01 Z-0.125000 F1000(Penetrate)
G01 X28.776100 Y609.214500 Z-0.125000 F1000.000000
G02 X28.351783 Y598.857476 Z-0.125000 I-48.259083 J-3.210077
G03 X27.405300 Y588.600200 Z-0.125000 I90.528196 J-13.525732
G02 X26.731147 Y576.545571 Z-0.125000 I-291.722157 J10.268333
G03 X27.086700 Y564.306100 Z-0.125000 I57.919645 J-4.442353
G03 X25.362105 Y563.507337 Z-0.125000 I1446.132513 J-3124.581909
G03 X23.643400 Y562.702800 Z-0.125000 I105.285857 J-227.156532
G03 X24.070329 Y574.903497 Z-0.125000 I-67.980554 J8.486604
G02 X23.731000 Y586.524500 Z-0.125000 I231.746282 J12.582354
G02 X23.968997 Y599.095251 Z-0.125000 I276.343150 J1.055730
G03 X23.970900 Y611.710800 Z-0.125000 I-151.795681 J6.330670
G02 X25.298268 Y611.027071 Z-0.125000 I-230.970820 J-450.029151
G03 X26.624700 Y610.342800 Z-0.125000 I395.770453 J765.557647
G01 X26.624700 Y610.342800 Z-0.125000
G00 Z10.000000

(Change tool to Cylindrical cutter)
 
G00 Z10.000000
G00 X33.633400 Y606.661400

G01 Z-0.125000 F1000(Penetrate)
G03 X34.018015 Y599.623321 Z-0.125000 I63.711447 J-0.047860 F1000.000000
G02 X34.488300 Y592.660900 Z-0.125000 I-81.637089 J-9.011364
G02 X34.365755 Y580.422390 Z-0.125000 I-175.951830 J-4.358048
G03 X35.203300 Y568.170500 Z-0.125000 I54.378954 J-2.437201
G02 X32.628059 Y566.912017 Z-0.125000 I-175.395727 J355.649142
G02 X30.043200 Y565.685900 Z-0.125000 I-77.668089 J160.399579
G03 X30.762629 Y578.589907 Z-0.125000 I-81.404048 J11.010526
G02 X30.870700 Y591.284500 Z-0.125000 I201.071280 J4.636003
G02 X31.559873 Y599.388889 Z-0.125000 I90.256016 J-3.593601
G03 X32.094600 Y607.467300 Z-0.125000 I-62.981583 J8.225789
G02 X32.864015 Y607.064304 Z-0.125000 I-33.066226 J-64.066401
G03 X33.633400 Y606.661400 Z-0.125000 I33.407723 J62.858268
G01 X33.633400 Y606.661400 Z-0.125000
G00 Z10.000000

(Change tool to Cylindrical cutter)
 
G00 Z10.000000
G00 X49.464100 Y598.383400

G01 Z-0.125000 F1000(Penetrate)
G03 X49.628480 Y594.487800 Z-0.125000 I125.480454 J3.343561 F1000.000000
G02 X49.804900 Y590.663200 Z-0.125000 I-164.641579 J-9.510886
G02 X50.051587 Y583.365369 Z-0.125000 I-3954.900739 J-137.339974
G03 X50.810300 Y576.090400 Z-0.125000 I51.490897 J1.692980
G03 X48.880292 Y575.107638 Z-0.125000 I802.413588 J-1578.193407
G02 X46.950900 Y574.125600 Z-0.125000 I-629.887994 J1235.130096
G03 X47.099043 Y581.923195 Z-0.125000 I-59.236263 J5.025609
G02 X47.035900 Y589.618600 Z-0.125000 I100.016274 J4.668627
G02 X47.238129 Y594.429430 Z-0.125000 I187.093311 J-5.455027
G03 X47.394300 Y599.433800 Z-0.125000 I-105.579085 J5.799420
G03 X48.427055 Y598.905183 Z-0.125000 I29.555103 J56.468409
G02 X49.464100 Y598.383400 Z-0.125000 I-119.296898 J-238.394415
G01 X49.464100 Y598.383400 Z-0.125000
G00 Z10.000000

(Change tool to Cylindrical cutter)
 
G00 Z10.000000
G00 X57.421500 Y594.635000

G01 Z-0.125000 F1000(Penetrate)
G03 X57.593697 Y592.301659 Z-0.125000 I89.235851 J5.412430 F1000.000000
G02 X57.746200 Y590.036700 Z-0.125000 I-57.931244 J-5.038219
G02 X57.916504 Y584.942152 Z-0.125000 I-186.784710 J-8.794090
G03 X58.162200 Y579.838000 Z-0.125000 I90.235042 J1.785608
G03 X55.604651 Y578.534530 Z-0.125000 I2467.157367 J-4844.079113
G03 X53.048100 Y577.230700 Z-0.125000 I114166.074962 J-223671.194347
G03 X53.316890 Y582.851334 Z-0.125000 I-41.097098 J4.782091
G03 X53.201200 Y588.489300 Z-0.125000 I-11349.092656 J-230.061547
G02 X53.166904 Y592.475819 Z-0.125000 I156.356576 J3.338554
G03 X53.164000 Y596.564200 Z-0.125000 I-421.180751 J1.745055
G03 X55.286264 Y595.582876 Z-0.125000 I60.142411 J127.281699
G03 X57.421500 Y594.635000 Z-0.125000 I68.562617 J151.568876
G01 X57.421500 Y594.635000 Z-0.125000
G00 Z10.000000

(Change tool to Cylindrical cutter)
 
G00 Z10.000000
G00 X62.807200 Y592.449300

G01 Z-0.125000 F1000(Penetrate)
G03 X64.265683 Y591.941019 Z-0.125000 I13.371206 J36.021229 F1000.000000
G03 X65.731900 Y591.478300 Z-0.125000 I24.976175 J76.587648
G02 X65.750278 Y591.040979 Z-0.125000 I-55.682708 J-2.559019
G02 X65.760300 Y590.621700 Z-0.125000 I-14.785223 J-0.563181
G02 X65.705358 Y587.127819 Z-0.125000 I-87.420837 J-0.372657
G03 X65.972600 Y583.588900 Z-0.125000 I15.997234 J-0.571515
G02 X63.601811 Y582.472765 Z-0.125000 I-901.535929 J1911.882083
G03 X61.287000 Y581.372600 Z-0.125000 I127.201143 J-270.623883
G03 X61.373874 Y584.837140 Z-0.125000 I-54.553293 J3.101288
G03 X61.317800 Y588.295400 Z-0.125000 I-180.798873 J-1.201963
G02 X61.307659 Y590.601474 Z-0.125000 I57.914752 J1.407742
G03 X61.333800 Y593.037600 Z-0.125000 I-254.962761 J3.954105
G02 X62.067300 Y592.740319 Z-0.125000 I-11.016959 J-28.236358
G03 X62.807200 Y592.449300 Z-0.125000 I6.592476 J15.674936
G01 X62.807200 Y592.449300 Z-0.125000
G00 Z10.000000

(Change tool to Cylindrical cutter)
 
G00 Z10.000000
G00 X74.820300 Y588.253100

G01 Z-0.125000 F1000(Penetrate)
G02 X72.157095 Y586.697746 Z-0.125000 I-24.773614 J39.361663 F1000.000000
G02 X69.356600 Y585.237000 Z-0.125000 I-51.281857 J94.901034
G03 X69.447878 Y587.402625 Z-0.125000 I-29.404863 J2.324103
G02 X69.493700 Y589.460300 Z-0.125000 I60.921715 J-0.327321
G02 X69.519774 Y589.867500 Z-0.125000 I14.511040 J-0.724741
G03 X69.553100 Y590.308400 Z-0.125000 I-86.623047 J6.769234
G02 X72.240403 Y589.392231 Z-0.125000 I-17.180426 J-54.792857
G02 X74.820300 Y588.253100 Z-0.125000 I-7.810339 J-21.179834
G01 X74.820300 Y588.253100 Z-0.125000
G00 Z10.000000

(End cutting path id: path444)


(Start cutting path id: path442)
(Change tool to Cylindrical cutter)
 
G00 Z10.000000
G00 X15.948000 Y485.694800

G01 Z-0.125000 F1000(Penetrate)
G02 X17.011532 Y485.074497 Z-0.125000 I-226.262175 J-389.156621 F1000.000000
G03 X17.418700 Y484.850000 Z-0.125000 I4.606283 J7.872881
G03 X18.632985 Y484.221202 Z-0.125000 I105.159931 J201.589793
G02 X19.847000 Y483.595400 Z-0.125000 I-271.354541 J-527.900266
G02 X20.261827 Y470.951862 Z-0.125000 I-121.691536 J-10.321202
G03 X20.240800 Y458.313500 Z-0.125000 I364.109309 J-6.924983
G02 X20.029033 Y444.605316 Z-0.125000 I-223.190816 J-3.407835
G03 X20.096600 Y430.723100 Z-0.125000 I135.939782 J-6.279636
G03 X18.011825 Y429.644747 Z-0.125000 I86.784290 J-170.334004
G03 X15.948000 Y428.516300 Z-0.125000 I32.408985 J-61.724559
G02 X15.885494 Y428.482860 Z-0.125000 I-0.349960 J0.579000
G03 X15.823200 Y428.450300 Z-0.125000 I0.349114 J-0.743808
G02 X15.116368 Y428.051591 Z-0.125000 I-21.274592 J36.889698
G03 X14.337400 Y427.619900 Z-0.125000 I108.141075 J-196.054822
G03 X14.381320 Y441.230474 Z-0.125000 I-101.395454 J7.132552
G02 X14.264800 Y454.759800 Z-0.125000 I122.449499 J7.819750
G02 X15.327909 Y470.216486 Z-0.125000 I352.487815 J-16.479167
G03 X15.938200 Y485.700700 Z-0.125000 I-150.677979 J13.692918
G01 X15.942937 Y485.698097 Z-0.125000
G01 X15.948000 Y485.694800 Z-0.125000
G01 X15.948000 Y485.694800 Z-0.125000
G00 Z10.000000

(Change tool to Cylindrical cutter)
 
G00 Z10.000000
G00 X15.948000 Y410.968000

G01 Z-0.125000 F1000(Penetrate)
G03 X22.019390 Y414.551412 Z-0.125000 I-74.173722 J132.607957 F1000.000000
G02 X27.817700 Y417.848500 Z-0.125000 I44.760988 J-71.970317
G02 X31.754750 Y419.818364 Z-0.125000 I63.987073 J-122.967857
G02 X35.712200 Y421.671400 Z-0.125000 I93.515853 J-194.565416
G02 X39.317153 Y423.280281 Z-0.125000 I98.425696 J-215.695225
G02 X42.949200 Y424.833900 Z-0.125000 I109.034577 J-249.878460
G02 X50.061983 Y427.727995 Z-0.125000 I156.503312 J-374.448783
G02 X57.287900 Y430.573300 Z-0.125000 I772.965258 J-1952.419182
G03 X65.034171 Y433.797418 Z-0.125000 I-72.158811 J184.286523
G02 X72.675200 Y437.154900 Z-0.125000 I1052.849059 J-2385.722879
G03 X73.310183 Y437.384647 Z-0.125000 I-39.079586 J109.002022
G03 X73.942400 Y437.621400 Z-0.125000 I-14.053636 J38.490811
G03 X74.230263 Y437.767788 Z-0.125000 I-0.488693 J1.317209
G02 X74.473400 Y437.926100 Z-0.125000 I9.461549 J-14.265286
G02 X79.911843 Y440.206711 Z-0.125000 I117.382174 J-272.289887
G02 X85.474800 Y442.309400 Z-0.125000 I43.601797 J-106.944506
G02 X101.211946 Y447.461816 Z-0.125000 I141.092622 J-404.333115
G03 X116.843200 Y452.883900 Z-0.125000 I-65.786048 J214.896353
G03 X118.558668 Y454.743354 Z-0.125000 I-1.043737 J2.683959
G03 X117.795400 Y457.196100 Z-0.125000 I-2.205105 J0.658929
G03 X103.839511 Y465.719533 Z-0.125000 I-40.011012 J-49.825155
G03 X88.578300 Y472.020100 Z-0.125000 I-118.363842 J-265.067373
G02 X71.030486 Y479.034397 Z-0.125000 I198.360364 J521.699301
G02 X54.000300 Y487.056800 Z-0.125000 I84.630221 J201.742732
G02 X48.483131 Y490.019481 Z-0.125000 I152.178948 J290.009393
G02 X42.949200 Y493.097400 Z-0.125000 I292.011642 J531.534850
G02 X39.326153 Y495.148304 Z-0.125000 I443.072762 J786.940416
G02 X35.712200 Y497.225100 Z-0.125000 I246.887618 J433.806407
G02 X27.206001 Y502.224818 Z-0.125000 I479.080238 J824.812142
G02 X18.857700 Y507.208000 Z-0.125000 I1561.713816 J2625.816233
G02 X17.659695 Y507.988196 Z-0.125000 I10.382731 J17.252735
G02 X15.948000 Y509.205900 Z-0.125000 I108.277160 J154.014370
G03 X12.494499 Y511.605792 Z-0.125000 I-75.615356 J-105.127483
G03 X8.711900 Y513.682100 Z-0.125000 I-13.517147 J-20.141713
G03 X7.148824 Y514.278887 Z-0.125000 I-6.902386 J-15.733037
G03 X5.749000 Y514.592900 Z-0.125000 I-2.341732 J-7.161989
G03 X5.108289 Y514.823196 Z-0.125000 I-1.451289 J-3.031239
G03 X4.403100 Y514.891900 Z-0.125000 I-0.585442 J-2.355654
G03 X3.149697 Y514.544634 Z-0.125000 I0.137838 J-2.933120
G03 X2.196100 Y513.650000 Z-0.125000 I1.205333 J-2.240313
G03 X1.730729 Y512.705130 Z-0.125000 I1.347339 J-1.250636
G03 X1.803100 Y511.735200 Z-0.125000 I2.004429 J-0.338105
G02 X0.653597 Y458.559915 Z-0.125000 I-1182.474173 J-1.038233
G03 X0.454500 Y405.434400 Z-0.125000 I657.719309 J-29.028045
G03 X1.419160 Y404.192279 Z-0.125000 I1.347547 J0.050888
G03 X2.889000 Y404.526900 Z-0.125000 I0.437025 J1.475831
G03 X4.062267 Y404.552019 Z-0.125000 I0.541774 J2.107878
G03 X4.905800 Y405.326800 Z-0.125000 I-0.383171 J1.263756
G03 X5.105797 Y405.360128 Z-0.125000 I-1.796008 J11.394485
G03 X5.305700 Y405.414000 Z-0.125000 I-0.200792 J1.142899
G03 X7.129653 Y406.248399 Z-0.125000 I-3.733278 J10.571485
G03 X8.711900 Y407.328100 Z-0.125000 I-5.926807 J10.384636
G02 X8.995191 Y407.529576 Z-0.125000 I2.009467 J-2.525559
G03 X9.273800 Y407.742900 Z-0.125000 I-1.054149 J1.665359
G03 X12.613538 Y409.210193 Z-0.125000 I-14.136621 J36.711154
G03 X15.948000 Y410.968000 Z-0.125000 I-33.759669 J68.081750
G01 X15.948000 Y410.968000 Z-0.125000
G00 Z10.000000

(Change tool to Cylindrical cutter)
 
G00 Z10.000000
G00 X42.949200 Y471.524900

G01 Z-0.125000 F1000(Penetrate)
G03 X43.385349 Y471.295276 Z-0.125000 I15.149864 J28.246663 F1000.000000
G02 X43.826200 Y471.064500 Z-0.125000 I-21.411052 J-41.438023
G02 X43.670256 Y456.730828 Z-0.125000 I-151.547965 J-5.518905
G03 X44.081900 Y442.420300 Z-0.125000 I82.321996 J-4.793180
G02 X43.515504 Y442.130664 Z-0.125000 I-91.830765 J178.880531
G03 X42.949200 Y441.841300 Z-0.125000 I113.851691 J-223.513550
G03 X40.379218 Y440.531398 Z-0.125000 I1731.468691 J-3400.255046
G02 X37.810400 Y439.224600 Z-0.125000 I-567.311689 J1112.006195
G03 X37.827772 Y439.915161 Z-0.125000 I-23.022315 J0.924671
G03 X37.829000 Y440.684900 Z-0.125000 I-44.928089 J0.456522
G03 X37.770383 Y448.104725 Z-0.125000 I-1714.286777 J-9.832922
G02 X37.800600 Y455.530200 Z-0.125000 I262.687950 J2.643807
G03 X37.397652 Y464.872855 Z-0.125000 I-76.530036 J1.379282
G02 X36.923700 Y474.690100 Z-0.125000 I87.345389 J9.136879
G02 X39.940543 Y473.113070 Z-0.125000 I-406.237748 J-780.802994
G02 X42.949200 Y471.524900 Z-0.125000 I-379.758737 J-723.065467
G01 X42.949200 Y471.524900 Z-0.125000
G00 Z10.000000

(Change tool to Cylindrical cutter)
 
G00 Z10.000000
G00 X26.624700 Y480.098500

G01 Z-0.125000 F1000(Penetrate)
G02 X27.700588 Y479.535120 Z-0.125000 I-36.820800 J-71.625797 F1000.000000
G03 X28.776100 Y478.972500 Z-0.125000 I35.918978 J67.353891
G02 X28.351965 Y468.616619 Z-0.125000 I-48.258706 J-3.210147
G03 X27.405300 Y458.355000 Z-0.125000 I90.571648 J-13.529984
G02 X26.731210 Y446.304620 Z-0.125000 I-291.624098 J10.269216
G03 X27.086700 Y434.064300 Z-0.125000 I57.919713 J-4.443185
G03 X25.362587 Y433.265299 Z-0.125000 I803.556712 J-1736.202425
G03 X23.643400 Y432.457600 Z-0.125000 I84.192182 J-181.436589
G03 X24.070346 Y444.660483 Z-0.125000 I-67.998721 J8.488004
G02 X23.731000 Y456.282700 Z-0.125000 I231.783604 J12.583697
G02 X23.968995 Y468.853376 Z-0.125000 I276.342319 J1.055727
G03 X23.970900 Y481.469000 Z-0.125000 I-151.797734 J6.330735
G02 X25.297885 Y480.785158 Z-0.125000 I-205.232979 J-399.880858
G02 X26.624700 Y480.098500 Z-0.125000 I-5126.347451 J-9907.171678
G01 X26.624700 Y480.098500 Z-0.125000
G00 Z10.000000

(Change tool to Cylindrical cutter)
 
G00 Z10.000000
G00 X33.633400 Y476.419500

G01 Z-0.125000 F1000(Penetrate)
G03 X34.018131 Y469.379594 Z-0.125000 I63.725861 J-0.047845 F1000.000000
G02 X34.488300 Y462.419100 Z-0.125000 I-81.610518 J-9.008771
G02 X34.365759 Y450.180540 Z-0.125000 I-175.955935 J-4.358096
G03 X35.203300 Y437.928600 Z-0.125000 I54.379949 J-2.437189
G02 X32.627933 Y436.668553 Z-0.125000 I-135.574567 J273.834411
G02 X30.043200 Y435.441500 Z-0.125000 I-87.638691 J181.271151
G03 X30.762590 Y448.348818 Z-0.125000 I-81.450125 J11.013331
G02 X30.870700 Y461.042600 Z-0.125000 I201.078467 J4.634808
G02 X31.559888 Y469.147164 Z-0.125000 I90.256495 J-3.593553
G03 X32.094600 Y477.225300 Z-0.125000 I-62.979116 J8.225513
G02 X32.863970 Y476.822491 Z-0.125000 I-32.287228 J-62.605163
G03 X33.633400 Y476.419500 Z-0.125000 I33.905335 J63.799418
G01 X33.633400 Y476.419500 Z-0.125000
G00 Z10.000000

(Change tool to Cylindrical cutter)
 
G00 Z10.000000
G00 X49.464100 Y468.138000

G01 Z-0.125000 F1000(Penetrate)
G03 X49.628401 Y464.246899 Z-0.125000 I125.405708 J3.346221 F1000.000000
G02 X49.804900 Y460.421400 Z-0.125000 I-164.540624 J-9.508305
G02 X50.051595 Y453.123419 Z-0.125000 I-3962.704943 J-137.605298
G03 X50.810300 Y445.848600 Z-0.125000 I51.490616 J1.693082
G03 X48.880292 Y444.865838 Z-0.125000 I802.413588 J-1578.193407
G02 X46.950900 Y443.883800 Z-0.125000 I-629.887994 J1235.130096
G03 X47.099137 Y451.678858 Z-0.125000 I-59.182693 J5.024400
G02 X47.035900 Y459.376700 Z-0.125000 I100.021526 J4.670842
G02 X47.238185 Y464.188283 Z-0.125000 I187.034985 J-5.453155
G03 X47.394300 Y469.189500 Z-0.125000 I-105.500375 J5.796275
G03 X48.426150 Y468.663003 Z-0.125000 I35.077563 J67.472028
G02 X49.464100 Y468.138000 Z-0.125000 I-63.679842 J-127.185919
G01 X49.464100 Y468.138000 Z-0.125000
G00 Z10.000000

(Change tool to Cylindrical cutter)
 
G00 Z10.000000
G00 X57.421500 Y464.393200

G01 Z-0.125000 F1000(Penetrate)
G03 X57.593800 Y462.057217 Z-0.125000 I88.650058 J5.364412 F1000.000000
G02 X57.746200 Y459.794800 Z-0.125000 I-57.768752 J-5.027729
G02 X57.916489 Y454.700979 Z-0.125000 I-186.783979 J-8.794056
G03 X58.162200 Y449.593500 Z-0.125000 I90.396546 J1.789146
G03 X55.605075 Y448.292596 Z-0.125000 I819.891205 J-1614.785990
G03 X53.048100 Y446.988800 Z-0.125000 I5018.519249 J-9845.331110
G03 X53.316890 Y452.609409 Z-0.125000 I-41.097033 J4.782084
G03 X53.201200 Y458.247500 Z-0.125000 I-11353.046668 J-230.137256
G02 X53.166904 Y462.234044 Z-0.125000 I156.356728 J3.338557
G03 X53.164000 Y466.322300 Z-0.125000 I-421.153119 J1.744998
G03 X55.286765 Y465.339534 Z-0.125000 I51.163816 J107.729405
G03 X57.421500 Y464.393200 Z-0.125000 I73.802808 J163.603007
G01 X57.421500 Y464.393200 Z-0.125000
G00 Z10.000000

(Change tool to Cylindrical cutter)
 
G00 Z10.000000
G00 X62.807200 Y462.207400

G01 Z-0.125000 F1000(Penetrate)
G03 X64.265693 Y461.699128 Z-0.125000 I13.366135 J36.007569 F1000.000000
G03 X65.731900 Y461.236500 Z-0.125000 I24.872795 J76.274633
G02 X65.750277 Y460.799131 Z-0.125000 I-55.817136 J-2.564311
G02 X65.760300 Y460.379800 Z-0.125000 I-14.784082 J-0.563170
G02 X65.705363 Y456.886098 Z-0.125000 I-87.418545 J-0.372664
G03 X65.972600 Y453.346900 Z-0.125000 I15.999715 J-0.571585
G02 X63.601811 Y452.230865 Z-0.125000 I-927.256603 J1966.692530
G03 X61.287000 Y451.130800 Z-0.125000 I127.723544 J-271.747568
G03 X61.373874 Y454.595215 Z-0.125000 I-54.549022 J3.101180
G03 X61.317800 Y458.053500 Z-0.125000 I-180.802156 J-1.202023
G02 X61.307660 Y460.359700 Z-0.125000 I57.920852 J1.407798
G03 X61.333800 Y462.795800 Z-0.125000 I-254.971258 J3.954130
G02 X62.067312 Y462.498426 Z-0.125000 I-11.085682 J-28.397648
G03 X62.807200 Y462.207400 Z-0.125000 I6.588843 J15.665053
G01 X62.807200 Y462.207400 Z-0.125000
G00 Z10.000000

(Change tool to Cylindrical cutter)
 
G00 Z10.000000
G00 X74.820300 Y458.011300

G01 Z-0.125000 F1000(Penetrate)
G02 X72.156720 Y456.454703 Z-0.125000 I-24.967530 J39.666138 F1000.000000
G02 X69.356600 Y454.995100 Z-0.125000 I-48.666195 J89.946114
G03 X69.447879 Y457.160830 Z-0.125000 I-29.405184 J2.324128
G02 X69.493700 Y459.218300 Z-0.125000 I60.900285 J-0.327039
G02 X69.519777 Y459.625674 Z-0.125000 I14.518949 J-0.724866
G03 X69.553100 Y460.066600 Z-0.125000 I-87.001120 J6.796868
G02 X72.240420 Y459.150389 Z-0.125000 I-17.172142 J-54.766434
G02 X74.820300 Y458.011300 Z-0.125000 I-7.815222 J-21.191484
G01 X74.820300 Y458.011300 Z-0.125000
G00 Z10.000000

(End cutting path id: path442)


(Start cutting path id: path440)
(Change tool to Cylindrical cutter)
 
G00 Z10.000000
G00 X62.701000 Y403.284300

G01 Z-0.125000 F1000(Penetrate)
G02 X71.048111 Y398.868863 Z-0.125000 I-234.796390 J-453.965625 F1000.000000
G02 X79.344000 Y394.367100 Z-0.125000 I-1622.110721 J-2999.134984
G03 X85.358730 Y391.332706 Z-0.125000 I51.090076 J93.791624
G02 X91.128800 Y388.021600 Z-0.125000 I-16.483198 J-35.407437
G02 X86.073143 Y385.225336 Z-0.125000 I-20.311332 J30.754513
G03 X80.898000 Y382.675900 Z-0.125000 I38.550903 J-84.782406
G03 X74.102540 Y378.576276 Z-0.125000 I34.599070 J-65.032595
G02 X67.384100 Y374.326800 Z-0.125000 I-68.217883 J100.417091
G03 X55.759249 Y367.147773 Z-0.125000 I159.742178 J-271.668680
G02 X42.949200 Y361.825500 Z-0.125000 I-20.935681 J32.312348
G01 X42.949200 Y373.212800 Z-0.125000
G03 X51.559304 Y376.530909 Z-0.125000 I-3.476685 J21.851749
G02 X59.073700 Y381.332500 Z-0.125000 I262.043447 J-401.812159
G02 X66.776859 Y385.367348 Z-0.125000 I30.297829 J-48.472624
G03 X71.442400 Y391.954500 Z-0.125000 I-3.061279 J7.114068
G03 X70.757478 Y393.580933 Z-0.125000 I-1.954622 J0.134305
G03 X69.231900 Y394.433100 Z-0.125000 I-2.913014 J-3.423320
G03 X55.828716 Y397.862916 Z-0.125000 I-34.434224 J-106.659891
G02 X42.949200 Y402.630700 Z-0.125000 I7.808105 J40.872540
G01 X42.949200 Y413.414500 Z-0.125000
G02 X53.284042 Y409.001459 Z-0.125000 I-5.158191 J-26.387931
G03 X62.701000 Y403.284300 Z-0.125000 I46.396954 J65.808157
G01 X62.701000 Y403.284300 Z-0.125000
G00 Z10.000000

(Change tool to Cylindrical cutter)
 
G00 Z10.000000
G00 X42.949200 Y396.317500

G01 Z-0.125000 F1000(Penetrate)
G03 X52.738229 Y392.818069 Z-0.125000 I21.297163 J44.133744 F1000.000000
G03 X63.028500 Y390.419800 Z-0.125000 I153.511329 J635.396826
G03 X61.194644 Y388.929011 Z-0.125000 I31.002806 J-40.010636
G02 X60.662100 Y388.502500 Z-0.125000 I-7.225123 J8.475606
G02 X57.024396 Y385.909837 Z-0.125000 I-55.046239 J73.385741
G02 X53.295000 Y383.428500 Z-0.125000 I-161.439756 J238.597246
G02 X48.109425 Y380.363642 Z-0.125000 I-35.990552 J54.974787
G03 X42.949200 Y376.903500 Z-0.125000 I14.201527 J-26.757092
G01 X42.949200 Y396.317500 Z-0.125000
G01 X42.949200 Y396.317500 Z-0.125000
G00 Z10.000000

(Change tool to Cylindrical cutter)
 
G00 Z10.000000
G00 X35.712200 Y358.376800

G01 Z-0.125000 F1000(Penetrate)
G03 X39.326185 Y356.299961 Z-0.125000 I250.816852 J432.272983 F1000.000000
G03 X42.949200 Y354.249200 Z-0.125000 I439.714390 J772.603770
G01 X42.949200 Y358.140600 Z-0.125000
G03 X54.940491 Y361.505781 Z-0.125000 I-0.140710 J23.548524
G02 X65.385900 Y367.374400 Z-0.125000 I105.222723 J-175.053247
G03 X74.764254 Y372.652593 Z-0.125000 I-82.118247 J156.879534
G02 X83.991700 Y378.140300 Z-0.125000 I427.441164 J-708.230177
G02 X91.144836 Y381.814737 Z-0.125000 I36.999238 J-63.227682
G03 X97.903000 Y386.149200 Z-0.125000 I-10.896538 J24.425350
G03 X98.618247 Y388.226060 Z-0.125000 I-1.464245 J1.665861
G03 X97.649900 Y390.064300 Z-0.125000 I-3.471790 J-0.654695
G03 X92.102538 Y394.245017 Z-0.125000 I-17.271897 J-17.147216
G03 X85.834200 Y397.470400 Z-0.125000 I-61.950120 J-112.692572
G02 X76.232818 Y402.607520 Z-0.125000 I54.455282 J113.319169
G03 X66.650500 Y407.805500 Z-0.125000 I-73.931632 J-124.859382
G02 X55.348713 Y414.462666 Z-0.125000 I40.090813 J80.983704
G03 X42.949200 Y419.093700 Z-0.125000 I-15.362862 J-22.218536
G01 X42.949200 Y424.833900 Z-0.125000
G03 X39.317182 Y423.280318 Z-0.125000 I105.485805 J-251.630727
G03 X35.712200 Y421.671300 Z-0.125000 I94.362783 J-216.261419
G01 X35.712200 Y358.376800 Z-0.125000
G01 X35.712200 Y358.376800 Z-0.125000
G00 Z10.000000

(End cutting path id: path440)


(Start cutting path id: path438)
(Change tool to Cylindrical cutter)
 
G00 Z10.000000
G00 X66.644300 Y666.990600

G01 Z-0.125000 F1000(Penetrate)
G02 X79.736315 Y661.707756 Z-0.125000 I-46.175483 J-133.296518 F1000.000000
G02 X91.984500 Y654.943900 Z-0.125000 I-41.453872 J-89.537481
G02 X88.020384 Y653.045930 Z-0.125000 I-19.321752 J35.266847
G02 X83.845700 Y651.353800 Z-0.125000 I-127.135206 J307.661719
G03 X75.739428 Y647.572556 Z-0.125000 I28.595619 J-71.883377
G02 X67.727500 Y643.595600 Z-0.125000 I-63.247351 J117.358515
G02 X55.268066 Y638.947218 Z-0.125000 I-39.413365 J86.620616
G03 X42.949200 Y633.902100 Z-0.125000 I18.596819 J-62.970892
G01 X42.949200 Y645.632300 Z-0.125000
G03 X45.379239 Y646.288651 Z-0.125000 I-2.301202 J13.346446
G02 X47.328800 Y646.919800 Z-0.125000 I8.179126 J-21.937983
G03 X54.836827 Y650.335793 Z-0.125000 I-7.077871 J25.515446
G02 X62.163900 Y654.283600 Z-0.125000 I25.738859 J-38.997577
G03 X63.933381 Y656.280020 Z-0.125000 I-1.232735 J2.874986
G03 X63.175300 Y658.885300 Z-0.125000 I-2.420989 J0.708477
G03 X58.122810 Y662.295498 Z-0.125000 I-16.047549 J-18.327830
G03 X52.520700 Y664.867600 Z-0.125000 I-36.758570 J-72.674361
G02 X47.907310 Y666.948399 Z-0.125000 I32.153675 J77.443318
G03 X42.949200 Y668.767400 Z-0.125000 I-11.341275 J-23.246539
G01 X42.949200 Y676.230300 Z-0.125000
G02 X54.743689 Y671.532305 Z-0.125000 I-136.577999 J-360.038336
G03 X66.644300 Y666.990600 Z-0.125000 I79.256350 J189.812671
G01 X66.644300 Y666.990600 Z-0.125000
G00 Z10.000000

(Change tool to Cylindrical cutter)
 
G00 Z10.000000
G00 X42.949200 Y662.618400

G01 Z-0.125000 F1000(Penetrate)
G03 X45.218453 Y661.648760 Z-0.125000 I13.250592 J27.870227 F1000.000000
G02 X47.416400 Y660.784800 Z-0.125000 I-39.256668 J-103.098274
G02 X51.783780 Y658.970781 Z-0.125000 I-100.359040 J-247.785921
G02 X55.948100 Y656.962800 Z-0.125000 I-19.365600 J-45.484163
G03 X50.446688 Y653.546829 Z-0.125000 I461.516720 J-749.409441
G02 X44.797000 Y650.891600 Z-0.125000 I-13.835098 J22.099555
G02 X44.111382 Y650.666047 Z-0.125000 I-44.723756 J134.792863
G03 X42.949200 Y650.258500 Z-0.125000 I8.683718 J-26.623782
G01 X42.949200 Y662.618400 Z-0.125000
G01 X42.949200 Y662.618400 Z-0.125000
G00 Z10.000000

(Change tool to Cylindrical cutter)
 
G00 Z10.000000
G00 X35.712200 Y627.467000

G01 Z-0.125000 F1000(Penetrate)
G03 X39.326185 Y625.390161 Z-0.125000 I250.816852 J432.272983 F1000.000000
G03 X42.949200 Y623.339400 Z-0.125000 I439.714389 J772.603771
G01 X42.949200 Y628.625000 Z-0.125000
G02 X57.510997 Y633.881564 Z-0.125000 I136.872756 J-356.368609
G03 X71.916800 Y639.435800 Z-0.125000 I-59.124825 J174.808745
G03 X79.693611 Y643.113250 Z-0.125000 I-53.623239 J123.460282
G02 X87.548300 Y646.629500 Z-0.125000 I37.216848 J-72.604817
G03 X93.574221 Y649.126070 Z-0.125000 I-48.539927 J125.680449
G03 X99.073700 Y652.483100 Z-0.125000 I-9.983596 J22.538238
G03 X100.386929 Y654.631414 Z-0.125000 I-2.355950 J2.915688
G03 X99.429500 Y657.138900 Z-0.125000 I-2.430805 J0.508380
G03 X86.180803 Y665.204678 Z-0.125000 I-52.277651 J-70.956376
G03 X71.800800 Y671.434000 Z-0.125000 I-69.475181 J-140.666810
G02 X57.422891 Y677.081810 Z-0.125000 I177.036792 J471.816508
G03 X42.949200 Y682.471600 Z-0.125000 I-88.513073 J-215.563507
G01 X42.949200 Y688.820500 Z-0.125000
G03 X39.317986 Y687.269441 Z-0.125000 I100.125883 J-239.432744
G03 X35.712200 Y685.657900 Z-0.125000 I87.672609 J-201.005124
G01 X35.712200 Y627.467000 Z-0.125000
G01 X35.712200 Y627.467000 Z-0.125000
G00 Z10.000000

(End cutting path id: path438)


(Start cutting path id: path436)
(Change tool to Cylindrical cutter)
 
G00 Z10.000000
G00 X47.628800 Y542.697200

G01 Z-0.125000 F1000(Penetrate)
G02 X56.351764 Y539.633700 Z-0.125000 I-54.870666 J-170.188474 F1000.000000
G02 X64.961200 Y536.318700 Z-0.125000 I-415.456907 J-1091.826725
G02 X74.297856 Y532.571059 Z-0.125000 I-188.010070 J-481.901647
G02 X83.539500 Y528.629000 Z-0.125000 I-163.017102 J-394.976304
G03 X87.823237 Y526.871138 Z-0.125000 I36.192308 J82.098649
G02 X92.418100 Y524.672400 Z-0.125000 I-10.962302 J-28.809200
G02 X81.190973 Y518.502495 Z-0.125000 I-26.876221 J35.605852
G03 X69.178800 Y513.832000 Z-0.125000 I182.187859 J-486.356306
G03 X55.891694 Y508.146335 Z-0.125000 I128.229880 J-318.035086
G03 X42.949200 Y501.659100 Z-0.125000 I76.170211 J-168.119191
G01 X42.949200 Y511.523600 Z-0.125000
G03 X53.495842 Y516.403625 Z-0.125000 I-9.388139 J34.126154
G03 X62.801000 Y522.943000 Z-0.125000 I-224.023091 J328.662150
G03 X63.924983 Y524.962103 Z-0.125000 I-1.605769 J2.216288
G03 X63.119600 Y527.106200 Z-0.125000 I-2.731435 J0.197307
G03 X58.162224 Y530.792976 Z-0.125000 I-15.510589 J-15.679793
G03 X52.539300 Y533.550600 Z-0.125000 I-34.875531 J-64.001307
G02 X47.989981 Y535.836627 Z-0.125000 I19.543548 J44.562440
G03 X42.949200 Y536.647200 Z-0.125000 I-3.601892 J-6.320338
G01 X42.949200 Y544.011000 Z-0.125000
G03 X45.558921 Y543.239580 Z-0.125000 I5.766833 J14.709195
G02 X47.628800 Y542.697200 Z-0.125000 I-3.882559 J-19.037772
G01 X47.628800 Y542.697200 Z-0.125000
G00 Z10.000000

(Change tool to Cylindrical cutter)
 
G00 Z10.000000
G00 X42.949200 Y531.666300

G01 Z-0.125000 F1000(Penetrate)
G03 X45.784584 Y530.239806 Z-0.125000 I6.137753 J8.668628 F1000.000000
G02 X48.708400 Y529.145400 Z-0.125000 I-11.555827 J-35.325390
G02 X52.942371 Y527.229656 Z-0.125000 I-36.174247 J-85.585008
G02 X56.885200 Y525.027100 Z-0.125000 I-16.508353 J-34.182198
G02 X50.057957 Y520.121321 Z-0.125000 I-65.973379 J84.609873
G02 X42.949200 Y515.581700 Z-0.125000 I-149.336292 J226.015367
G01 X42.949200 Y531.666300 Z-0.125000
G01 X42.949200 Y531.666300 Z-0.125000
G00 Z10.000000

(Change tool to Cylindrical cutter)
 
G00 Z10.000000
G00 X35.712200 Y497.225100

G01 Z-0.125000 F1000(Penetrate)
G03 X39.326153 Y495.148354 Z-0.125000 I251.738073 J433.891774 F1000.000000
G03 X42.949200 Y493.097500 Z-0.125000 I442.689045 J777.830413
G01 X42.949200 Y497.547600 Z-0.125000
G03 X58.748139 Y503.917313 Z-0.125000 I-79.040140 J218.823068
G02 X74.530000 Y510.343500 Z-0.125000 I104.728424 J-234.606928
G03 X87.576342 Y515.513204 Z-0.125000 I-103.732667 J280.828139
G03 X99.273700 Y522.954900 Z-0.125000 I-16.375140 J38.653739
G03 X99.995296 Y525.052847 Z-0.125000 I-1.531450 J1.699818
G03 X99.014400 Y526.932600 Z-0.125000 I-3.464946 J-0.612280
G03 X93.560683 Y530.591018 Z-0.125000 I-12.108921 J-12.156920
G02 X87.489000 Y533.236600 Z-0.125000 I101.895944 J242.144159
G03 X76.897408 Y537.769413 Z-0.125000 I-121.758023 J-269.864935
G03 X66.166400 Y542.016600 Z-0.125000 I-269.120805 J-664.284553
G03 X57.097033 Y545.417912 Z-0.125000 I-169.355602 J-437.783069
G03 X47.912800 Y548.553400 Z-0.125000 I-85.021045 J-234.018579
G03 X45.549602 Y549.293522 Z-0.125000 I-77.926577 J-244.675289
G03 X43.076600 Y549.559900 Z-0.125000 I-1.923893 J-6.248436
G03 X43.019270 Y549.546114 Z-0.125000 I0.013586 J-0.182590
G02 X42.949200 Y549.524300 Z-0.125000 I-0.148398 J0.353240
G01 X42.949200 Y555.075800 Z-0.125000
G03 X39.317973 Y553.524698 Z-0.125000 I100.481282 J-240.258965
G03 X35.712200 Y551.913200 Z-0.125000 I87.583870 J-200.811204
G01 X35.712200 Y497.225100 Z-0.125000
G01 X35.712200 Y497.225100 Z-0.125000
G00 Z10.000000

(End cutting path id: path436)


(Start cutting path id: path434)
(Change tool to Cylindrical cutter)
 
G00 Z10.000000
G00 X15.948000 Y674.954600

G01 Z-0.125000 F1000(Penetrate)
G02 X12.613125 Y673.196954 Z-0.125000 I-36.964452 J66.092078 F1000.000000
G02 X9.273800 Y671.732800 Z-0.125000 I-17.252363 J34.807696
G02 X8.995047 Y671.517441 Z-0.125000 I-1.267008 J1.351887
G03 X8.711900 Y671.314600 Z-0.125000 I1.574192 J-2.496467
G01 X8.711900 Y643.924000 Z-0.125000
G02 X12.494402 Y641.847662 Z-0.125000 I-9.736935 J-22.221439
G02 X15.948000 Y639.447600 Z-0.125000 I-72.079099 J-107.403933
G01 X15.948000 Y674.954600 Z-0.125000
G01 X15.948000 Y674.954600 Z-0.125000
G00 Z10.000000

(End cutting path id: path434)


(Start cutting path id: path432)
(Change tool to Cylindrical cutter)
 
G00 Z10.000000
G00 X15.948000 Y541.209900

G01 Z-0.125000 F1000(Penetrate)
G02 X12.613427 Y539.451635 Z-0.125000 I-37.187684 J66.485782 F1000.000000
G02 X9.273800 Y537.984700 Z-0.125000 I-17.394377 J35.065100
G02 X8.995251 Y537.771390 Z-0.125000 I-1.329822 J1.448010
G03 X8.711900 Y537.569900 Z-0.125000 I1.723895 J-2.724259
G01 X8.711900 Y513.682200 Z-0.125000
G02 X12.494422 Y511.605810 Z-0.125000 I-9.736147 J-22.219641
G02 X15.948000 Y509.205800 Z-0.125000 I-72.184058 J-107.556561
G01 X15.948000 Y541.209900 Z-0.125000
G01 X15.948000 Y541.209900 Z-0.125000
G00 Z10.000000

(End cutting path id: path432)


(Start cutting path id: path430)
(Change tool to Cylindrical cutter)
 
G00 Z10.000000
G00 X15.948000 Y410.968000

G01 Z-0.125000 F1000(Penetrate)
G02 X12.613550 Y409.210186 Z-0.125000 I-37.098500 J66.331754 F1000.000000
G02 X9.273800 Y407.742800 Z-0.125000 I-17.482919 J35.256565
G02 X8.995292 Y407.529590 Z-0.125000 I-1.331317 J1.450540
G03 X8.711900 Y407.328000 Z-0.125000 I1.719035 J-2.716584
G01 X8.711900 Y374.833800 Z-0.125000
G02 X12.493902 Y372.757508 Z-0.125000 I-9.730839 J-22.207526
G02 X15.948000 Y370.354900 Z-0.125000 I-70.659549 J-105.267567
G01 X15.948000 Y410.968000 Z-0.125000
G01 X15.948000 Y410.968000 Z-0.125000
G00 Z10.000000

(End cutting path id: path430)


(Start cutting path id: path427)
(Change tool to Cylindrical cutter)
 
G00 Z10.000000
G00 X15.948000 Y346.846500

G01 Z-0.125000 F1000(Penetrate)
G03 X17.011879 Y346.225157 Z-0.125000 I152.358164 J259.649843 F1000.000000
G03 X17.418700 Y346.001600 Z-0.125000 I4.845093 J8.335001
G03 X18.632955 Y345.372893 Z-0.125000 I106.863343 J204.903800
G02 X19.847000 Y344.747000 Z-0.125000 I-260.330512 J-506.453793
G02 X20.261829 Y332.103511 Z-0.125000 I-121.689314 J-10.321136
G03 X20.240800 Y319.465200 Z-0.125000 I364.100941 J-6.924996
G02 X20.029016 Y305.755327 Z-0.125000 I-223.222996 J-3.408326
G03 X20.096600 Y291.871400 Z-0.125000 I135.958256 J-6.280314
G03 X18.011757 Y290.794695 Z-0.125000 I71.893289 J-141.764991
G03 X15.948000 Y289.668000 Z-0.125000 I35.017375 J-66.594469
G02 X15.885105 Y289.633349 Z-0.125000 I-0.463184 J0.766326
G03 X15.823200 Y289.601800 Z-0.125000 I1.970611 J-3.943183
G02 X15.116262 Y289.202841 Z-0.125000 I-19.436990 J33.615664
G03 X14.337400 Y288.771500 Z-0.125000 I88.621745 J-160.941109
G03 X14.381318 Y302.382150 Z-0.125000 I-101.395774 J7.132575
G02 X14.264800 Y315.911400 Z-0.125000 I122.447867 J7.819686
G02 X15.327891 Y331.367535 Z-0.125000 I352.512564 J-16.481605
G03 X15.938200 Y346.852400 Z-0.125000 I-150.685826 J13.693476
G01 X15.943263 Y346.849103 Z-0.125000
G01 X15.948000 Y346.846500 Z-0.125000
G01 X15.948000 Y346.846500 Z-0.125000
G00 Z10.000000

(Change tool to Cylindrical cutter)
 
G00 Z10.000000
G00 X15.948000 Y272.119700

G01 Z-0.125000 F1000(Penetrate)
G03 X22.019012 Y275.701890 Z-0.125000 I-74.555617 J133.290711 F1000.000000
G02 X27.817700 Y279.000200 Z-0.125000 I45.180014 J-72.683588
G02 X31.754230 Y280.968548 Z-0.125000 I67.106605 J-129.286998
G02 X35.712200 Y282.823000 Z-0.125000 I91.170599 J-189.435088
G02 X39.317154 Y284.431931 Z-0.125000 I98.161606 J-215.096800
G02 X42.949200 Y285.985600 Z-0.125000 I109.383995 J-250.687159
G02 X50.061970 Y288.879653 Z-0.125000 I156.428411 J-374.269575
G02 X57.287900 Y291.725000 Z-0.125000 I778.625580 J-1966.768156
G03 X65.034159 Y294.949025 Z-0.125000 I-72.131695 J184.226292
G02 X72.675200 Y298.306500 Z-0.125000 I1053.739222 J-2387.757544
G03 X73.310633 Y298.536006 Z-0.125000 I-53.171033 J148.209021
G03 X73.942400 Y298.769500 Z-0.125000 I-21.825711 J60.025466
G03 X74.230594 Y298.919184 Z-0.125000 I-0.538661 J1.389389
G02 X74.473400 Y299.077800 Z-0.125000 I8.422336 J-12.627603
G02 X79.911841 Y301.358361 Z-0.125000 I117.559876 J-272.719600
G02 X85.474800 Y303.461000 Z-0.125000 I43.575744 J-106.878194
G02 X101.211957 Y308.613508 Z-0.125000 I141.070594 J-404.258875
G03 X116.843200 Y314.035600 Z-0.125000 I-65.787646 J214.900445
G03 X118.558692 Y315.894998 Z-0.125000 I-1.043539 J2.683837
G03 X117.795400 Y318.347800 Z-0.125000 I-2.205167 J0.658936
G03 X103.839511 Y326.871233 Z-0.125000 I-40.011012 J-49.825155
G03 X88.578300 Y333.171800 Z-0.125000 I-118.363842 J-265.067373
G02 X71.030469 Y340.186091 Z-0.125000 I198.367709 J521.718619
G02 X54.000300 Y348.208400 Z-0.125000 I84.635460 J201.755916
G02 X48.483132 Y351.171131 Z-0.125000 I152.410821 J290.436287
G02 X42.949200 Y354.249100 Z-0.125000 I291.237010 J530.133637
G02 X39.326153 Y356.299954 Z-0.125000 I439.065999 J779.881267
G02 X35.712200 Y358.376700 Z-0.125000 I248.124120 J435.968519
G02 X27.206001 Y363.376468 Z-0.125000 I478.674985 J824.114433
G02 X18.857700 Y368.359700 Z-0.125000 I1566.063850 J2633.077625
G02 X17.659290 Y369.139916 Z-0.125000 I10.427274 J17.326752
G02 X15.948000 Y370.354900 Z-0.125000 I122.590814 J174.480333
G03 X12.493971 Y372.757492 Z-0.125000 I-74.044985 J-102.764886
G03 X8.711900 Y374.833800 Z-0.125000 I-13.513566 J-20.132716
G03 X7.148824 Y375.430587 Z-0.125000 I-6.902386 J-15.733037
G03 X5.749000 Y375.744600 Z-0.125000 I-2.341732 J-7.161989
G03 X5.108301 Y375.973573 Z-0.125000 I-1.426906 J-2.981822
G03 X4.403100 Y376.040900 Z-0.125000 I-0.583208 J-2.381764
G03 X3.150000 Y375.695889 Z-0.125000 I0.128380 J-2.914455
G03 X2.196100 Y374.800800 Z-0.125000 I1.203490 J-2.238396
G03 X1.731045 Y373.857386 Z-0.125000 I1.342922 J-1.248323
G03 X1.803100 Y372.884300 Z-0.125000 I2.015747 J-0.339949
G02 X0.653636 Y319.712292 Z-0.125000 I-1182.366573 J-1.038215
G03 X0.454500 Y266.586000 Z-0.125000 I657.719482 J-29.028882
G03 X1.419116 Y265.343958 Z-0.125000 I1.347460 J0.050889
G03 X2.889000 Y265.678600 Z-0.125000 I0.437023 J1.475903
G03 X4.062276 Y265.703683 Z-0.125000 I0.541858 J2.107167
G03 X4.905800 Y266.478500 Z-0.125000 I-0.383271 J1.263828
G03 X5.105797 Y266.511828 Z-0.125000 I-1.796008 J11.394485
G03 X5.305700 Y266.565700 Z-0.125000 I-0.200792 J1.142899
G03 X7.129653 Y267.400099 Z-0.125000 I-3.733278 J10.571485
G03 X8.711900 Y268.479800 Z-0.125000 I-5.926807 J10.384636
G02 X8.994477 Y268.679602 Z-0.125000 I1.903576 J-2.392473
G03 X9.273800 Y268.894500 Z-0.125000 I-0.965237 J1.543592
G03 X12.613443 Y270.361479 Z-0.125000 I-14.052114 J36.525183
G03 X15.948000 Y272.119700 Z-0.125000 I-33.890435 J68.316142
G01 X15.948000 Y272.119700 Z-0.125000
G00 Z10.000000

(Change tool to Cylindrical cutter)
 
G00 Z10.000000
G00 X42.949200 Y332.676600

G01 Z-0.125000 F1000(Penetrate)
G03 X43.385349 Y332.446926 Z-0.125000 I15.328773 J28.580236 F1000.000000
G02 X43.826200 Y332.216100 Z-0.125000 I-21.784502 J-42.142308
G02 X43.670259 Y317.882503 Z-0.125000 I-151.547807 J-5.518900
G03 X44.081900 Y303.571900 Z-0.125000 I82.323187 J-4.793217
G01 X42.949200 Y302.992800 Z-0.125000
G03 X40.379612 Y301.682923 Z-0.125000 I1246.856706 J-2449.094689
G02 X37.810400 Y300.373800 Z-0.125000 I-938.657884 J1838.957888
G03 X37.827776 Y301.067450 Z-0.125000 I-23.281347 J0.930254
G03 X37.829000 Y301.836500 Z-0.125000 I-44.899893 J0.455969
G03 X37.770364 Y309.257148 Z-0.125000 I-1713.313423 J-9.827538
G02 X37.800600 Y316.678500 Z-0.125000 I262.397757 J2.641688
G03 X37.397644 Y326.022789 Z-0.125000 I-76.563987 J1.379147
G02 X36.923700 Y335.841800 Z-0.125000 I87.382619 J9.138729
G02 X39.940559 Y334.264724 Z-0.125000 I-404.203831 J-776.893732
G02 X42.949200 Y332.676600 Z-0.125000 I-385.172152 J-733.337938
G01 X42.949200 Y332.676600 Z-0.125000
G00 Z10.000000

(Change tool to Cylindrical cutter)
 
G00 Z10.000000
G00 X26.624700 Y341.250200

G01 Z-0.125000 F1000(Penetrate)
G02 X27.700073 Y340.686668 Z-0.125000 I-35.364242 J-68.792415 F1000.000000
G03 X28.776100 Y340.120800 Z-0.125000 I44.771540 J83.829429
G02 X28.351915 Y329.766551 Z-0.125000 I-48.246484 J-3.209286
G03 X27.405300 Y319.506700 Z-0.125000 I90.538403 J-13.527027
G02 X26.731214 Y307.456346 Z-0.125000 I-291.626435 J10.269299
G03 X27.086700 Y295.215900 Z-0.125000 I57.920888 J-4.443250
G02 X25.362229 Y294.415843 Z-0.125000 I-460.811253 J990.990089
G03 X23.643400 Y293.609300 Z-0.125000 I76.409035 J-165.070595
G03 X24.070346 Y305.812183 Z-0.125000 I-67.998721 J8.488004
G02 X23.731000 Y317.434400 Z-0.125000 I231.783604 J12.583697
G02 X23.968995 Y330.005076 Z-0.125000 I276.342319 J1.055727
G03 X23.970900 Y342.620700 Z-0.125000 I-151.797734 J6.330735
G03 X25.298420 Y341.935267 Z-0.125000 I500.570348 J967.859116
G02 X26.624700 Y341.250200 Z-0.125000 I-402.891494 J-781.620022
G01 X26.624700 Y341.250200 Z-0.125000
G00 Z10.000000

(Change tool to Cylindrical cutter)
 
G00 Z10.000000
G00 X33.633400 Y337.571200

G01 Z-0.125000 F1000(Penetrate)
G03 X34.018132 Y330.531244 Z-0.125000 I63.726668 J-0.047845 F1000.000000
G02 X34.488300 Y323.570700 Z-0.125000 I-81.611179 J-9.008793
G02 X34.365759 Y311.332265 Z-0.125000 I-175.952341 J-4.358061
G03 X35.203300 Y299.080300 Z-0.125000 I54.379966 J-2.437212
G02 X32.627933 Y297.820253 Z-0.125000 I-135.574566 J273.834411
G02 X30.043200 Y296.593200 Z-0.125000 I-87.638691 J181.271151
G03 X30.762590 Y309.500518 Z-0.125000 I-81.450125 J11.013331
G02 X30.870700 Y322.194300 Z-0.125000 I201.078467 J4.634808
G02 X31.559882 Y330.298789 Z-0.125000 I90.255463 J-3.593512
G03 X32.094600 Y338.377000 Z-0.125000 I-62.979582 J8.225587
G02 X32.863970 Y337.974191 Z-0.125000 I-32.287252 J-62.605150
G03 X33.633400 Y337.571200 Z-0.125000 I33.905360 J63.799404
G01 X33.633400 Y337.571200 Z-0.125000
G00 Z10.000000

(Change tool to Cylindrical cutter)
 
G00 Z10.000000
G00 X49.464100 Y329.289700

G01 Z-0.125000 F1000(Penetrate)
G03 X49.628346 Y325.399211 Z-0.125000 I125.439066 J3.346982 F1000.000000
G02 X49.804900 Y321.570400 Z-0.125000 I-164.524465 J-9.505032
G02 X50.051538 Y314.275803 Z-0.125000 I-3911.705167 J-135.910175
G03 X50.810300 Y307.000300 Z-0.125000 I51.494089 J1.693002
G01 X46.950900 Y305.032100 Z-0.125000
G03 X47.099064 Y312.831382 Z-0.125000 I-59.247801 J5.026588
G02 X47.035900 Y320.528300 Z-0.125000 I100.031468 J4.669620
G02 X47.238187 Y325.340009 Z-0.125000 I187.036606 J-5.453031
G03 X47.394300 Y330.341200 Z-0.125000 I-105.500861 J5.796253
G03 X48.426150 Y329.814703 Z-0.125000 I35.077563 J67.472028
G02 X49.464100 Y329.289700 Z-0.125000 I-63.679843 J-127.185919
G01 X49.464100 Y329.289700 Z-0.125000
G00 Z10.000000

(Change tool to Cylindrical cutter)
 
G00 Z10.000000
G00 X57.421500 Y325.544800

G01 Z-0.125000 F1000(Penetrate)
G03 X57.593797 Y323.208942 Z-0.125000 I88.654076 J5.365002 F1000.000000
G02 X57.746200 Y320.946500 Z-0.125000 I-57.767485 J-5.027694
G02 X57.916489 Y315.852679 Z-0.125000 I-186.783979 J-8.794056
G03 X58.162200 Y310.745200 Z-0.125000 I90.396546 J1.789146
G02 X55.604560 Y309.442759 Z-0.125000 I-1647.472468 J3231.792948
G03 X53.048100 Y308.140500 Z-0.125000 I1237.370071 J-2432.105686
G03 X53.316890 Y313.761109 Z-0.125000 I-41.097033 J4.782084
G03 X53.201200 Y319.399200 Z-0.125000 I-11353.046668 J-230.137254
G02 X53.166904 Y323.385744 Z-0.125000 I156.356728 J3.338557
G03 X53.164000 Y327.474000 Z-0.125000 I-421.153119 J1.744997
G03 X55.286751 Y326.491228 Z-0.125000 I51.189044 J107.782524
G03 X57.421500 Y325.544800 Z-0.125000 I74.086006 J164.226519
G01 X57.421500 Y325.544800 Z-0.125000
G00 Z10.000000

(Change tool to Cylindrical cutter)
 
G00 Z10.000000
G00 X62.807200 Y323.355700

G01 Z-0.125000 F1000(Penetrate)
G03 X64.265021 Y322.850272 Z-0.125000 I14.311238 J38.923179 F1000.000000
G03 X65.731900 Y322.385700 Z-0.125000 I28.335012 J86.919304
G02 X65.750246 Y321.951408 Z-0.125000 I-53.301599 J-2.469214
G02 X65.760300 Y321.531400 Z-0.125000 I-14.768991 J-0.563649
G02 X65.705363 Y318.037824 Z-0.125000 I-87.412258 J-0.372654
G03 X65.972600 Y314.498600 Z-0.125000 I15.999747 J-0.571606
G02 X63.601796 Y313.382521 Z-0.125000 I-870.925354 J1846.966484
G03 X61.287000 Y312.282500 Z-0.125000 I127.324064 J-270.916060
G03 X61.373874 Y315.746915 Z-0.125000 I-54.549022 J3.101180
G03 X61.317800 Y319.205200 Z-0.125000 I-180.802156 J-1.202023
G02 X61.307660 Y321.511327 Z-0.125000 I57.919413 J1.407764
G03 X61.333800 Y323.947500 Z-0.125000 I-254.976541 J3.954140
G02 X62.066905 Y323.649878 Z-0.125000 I-10.683732 J-27.367992
G03 X62.807200 Y323.355700 Z-0.125000 I7.418285 J17.589436
G01 X62.807200 Y323.355700 Z-0.125000
G00 Z10.000000

(Change tool to Cylindrical cutter)
 
G00 Z10.000000
G00 X74.820300 Y319.162900

G01 Z-0.125000 F1000(Penetrate)
G02 X72.156724 Y317.606354 Z-0.125000 I-24.986602 J39.700070 F1000.000000
G02 X69.356600 Y316.146800 Z-0.125000 I-48.578225 J89.780535
G03 X69.447914 Y318.310922 Z-0.125000 I-29.270781 J2.319050
G02 X69.493700 Y320.366600 Z-0.125000 I60.503177 J-0.319242
G02 X69.519881 Y320.778135 Z-0.125000 I14.430120 J-0.711419
G03 X69.553100 Y321.218300 Z-0.125000 I-88.803606 J6.923266
G02 X72.240404 Y320.302082 Z-0.125000 I-17.169107 J-54.756756
G02 X74.820300 Y319.162900 Z-0.125000 I-7.813145 J-21.185295
G01 X74.820300 Y319.162900 Z-0.125000
G00 Z10.000000

(End cutting path id: path427)


(Start cutting path id: path425)
(Change tool to Cylindrical cutter)
 
G00 Z10.000000
G00 X8.711900 Y247.414200

G01 Z-0.125000 F1000(Penetrate)
G03 X7.148717 Y248.012082 Z-0.125000 I-6.988764 J-15.929925 F1000.000000
G03 X5.749000 Y248.325100 Z-0.125000 I-2.305343 J-7.022706
G03 X5.107890 Y248.556309 Z-0.125000 I-1.416134 J-2.922282
G03 X4.403100 Y248.623900 Z-0.125000 I-0.583218 J-2.373052
G03 X3.148890 Y248.276404 Z-0.125000 I0.140735 J-2.945091
G03 X2.196100 Y247.384600 Z-0.125000 I1.202973 J-2.240115
G03 X1.730720 Y246.436942 Z-0.125000 I1.358178 J-1.255080
G03 X1.803100 Y245.467200 Z-0.125000 I2.004633 J-0.337949
G02 X0.653713 Y192.297169 Z-0.125000 I-1182.355041 J-1.038231
G03 X0.454500 Y139.166400 Z-0.125000 I657.813820 J-29.032217
G03 X1.417335 Y137.924727 Z-0.125000 I1.347870 J0.051040
G03 X2.889000 Y138.259000 Z-0.125000 I0.439009 J1.473927
G03 X4.060348 Y138.285197 Z-0.125000 I0.538523 J2.121342
G03 X4.905800 Y139.062400 Z-0.125000 I-0.381674 J1.263638
G03 X5.106127 Y139.093849 Z-0.125000 I-0.531978 J4.042431
G03 X5.305700 Y139.145300 Z-0.125000 I-0.258261 J1.414547
G03 X7.129734 Y139.980446 Z-0.125000 I-3.749353 J10.598424
G03 X8.711900 Y141.060200 Z-0.125000 I-5.931105 J10.389914
G02 X8.994986 Y141.262929 Z-0.125000 I1.851706 J-2.286671
G03 X9.273800 Y141.478200 Z-0.125000 I-0.987550 J1.567242
G03 X12.613042 Y142.942086 Z-0.125000 I-13.840435 J36.111647
G03 X15.948000 Y144.700100 Z-0.125000 I-33.745495 J68.057500
G03 X22.018903 Y148.283649 Z-0.125000 I-74.004384 J132.305214
G02 X27.817700 Y151.583900 Z-0.125000 I45.093290 J-72.487826
G02 X31.754236 Y153.550635 Z-0.125000 I65.543000 J-126.265237
G02 X35.712200 Y155.403500 Z-0.125000 I94.285032 J-196.251412
G02 X39.317871 Y157.014643 Z-0.125000 I93.247616 J-203.844021
G02 X42.949200 Y158.566000 Z-0.125000 I103.005543 J-236.083908
G02 X50.062746 Y161.462570 Z-0.125000 I151.159871 J-361.043063
G02 X57.287900 Y164.305400 Z-0.125000 I707.348837 J-1787.149202
G03 X65.034046 Y167.529128 Z-0.125000 I-72.283399 J184.604710
G02 X72.675200 Y170.887000 Z-0.125000 I1131.323790 J-2564.060786
G02 X73.310601 Y171.118160 Z-0.125000 I48.420650 J-132.107208
G03 X73.942400 Y171.353400 Z-0.125000 I-11.545610 J31.974870
G03 X74.230518 Y171.500523 Z-0.125000 I-0.547309 J1.427496
G02 X74.473400 Y171.657300 Z-0.125000 I16.029265 J-24.566404
G02 X79.912325 Y173.941461 Z-0.125000 I114.531351 J-265.098498
G02 X85.474800 Y176.044700 Z-0.125000 I43.393079 J-106.355292
G02 X101.211420 Y181.195565 Z-0.125000 I140.392159 J-402.303658
G03 X116.843200 Y186.619400 Z-0.125000 I-65.282814 J213.386250
G03 X118.558210 Y188.474962 Z-0.125000 I-1.036199 J2.678043
G03 X117.795400 Y190.928200 Z-0.125000 I-2.205655 J0.659386
G03 X103.839649 Y199.452982 Z-0.125000 I-40.035654 J-49.855841
G03 X88.578300 Y205.755700 Z-0.125000 I-118.275780 J-264.763779
G02 X71.030237 Y212.768131 Z-0.125000 I196.322182 J516.743554
G02 X54.000300 Y220.788100 Z-0.125000 I84.990132 J202.562612
G02 X48.483183 Y223.752778 Z-0.125000 I150.105785 J285.955237
G02 X42.949200 Y226.833000 Z-0.125000 I298.415937 J542.650804
G02 X39.327121 Y228.880604 Z-0.125000 I356.192596 J634.309118
G02 X35.712200 Y230.959700 Z-0.125000 I226.207408 J397.488618
G02 X27.206402 Y235.958243 Z-0.125000 I456.910338 J787.240227
G02 X18.857700 Y240.942600 Z-0.125000 I1647.882275 J2769.655159
G02 X17.659777 Y241.721300 Z-0.125000 I9.904015 J16.546725
G02 X15.948000 Y242.937900 Z-0.125000 I136.517883 J193.895641
G03 X12.494773 Y245.336986 Z-0.125000 I-76.163438 J-105.944254
G03 X8.711900 Y247.414200 Z-0.125000 I-13.541897 J-20.178381
G01 X8.711900 Y247.414200 Z-0.125000
G00 Z10.000000

(Change tool to Cylindrical cutter)
 
G00 Z10.000000
G00 X15.948000 Y219.429300

G01 Z-0.125000 F1000(Penetrate)
G02 X17.011589 Y218.806562 Z-0.125000 I-1627.730540 J-2781.257149 F1000.000000
G03 X17.418700 Y218.581300 Z-0.125000 I4.799962 J8.194368
G03 X18.632447 Y217.955741 Z-0.125000 I193.724376 J374.387141
G02 X19.847000 Y217.330000 Z-0.125000 I-212.488913 J-413.930783
G02 X20.261792 Y204.682603 Z-0.125000 I-121.757751 J-10.323741
G03 X20.240800 Y192.048200 Z-0.125000 I363.937232 J-6.921889
G02 X20.029015 Y178.338200 Z-0.125000 I-223.226527 J-3.408342
G03 X20.096600 Y164.454300 Z-0.125000 I135.958312 J-6.280284
G03 X18.012480 Y163.377915 Z-0.125000 I71.117583 J-140.255211
G03 X15.948000 Y162.247500 Z-0.125000 I32.670786 J-62.117157
G02 X15.885650 Y162.214868 Z-0.125000 I-0.378189 J0.646735
G03 X15.823200 Y162.182300 Z-0.125000 I0.326158 J-0.701564
G02 X15.116643 Y161.784402 Z-0.125000 I-17.618717 J30.459699
G03 X14.337400 Y161.351900 Z-0.125000 I40.149072 J-73.255214
G03 X14.381377 Y174.961926 Z-0.125000 I-101.399028 J7.132724
G02 X14.264800 Y188.494500 Z-0.125000 I122.504385 J7.822106
G02 X15.327810 Y203.947260 Z-0.125000 I352.476668 J-16.484249
G03 X15.938200 Y219.432800 Z-0.125000 I-150.681852 J13.694197
G01 X15.943100 Y219.431050 Z-0.125000
G01 X15.948000 Y219.429300 Z-0.125000
G01 X15.948000 Y219.429300 Z-0.125000
G00 Z10.000000

(Change tool to Cylindrical cutter)
 
G00 Z10.000000
G00 X42.949200 Y205.259700

G01 Z-0.125000 F1000(Penetrate)
G03 X43.385207 Y205.029094 Z-0.125000 I31.796603 J59.590406 F1000.000000
G02 X43.826200 Y204.796500 Z-0.125000 I-46.286226 J-88.291973
G02 X43.670227 Y190.462303 Z-0.125000 I-151.547184 J-5.518935
G03 X44.081900 Y176.152300 Z-0.125000 I82.312709 J-4.792934
G01 X42.949200 Y175.575800 Z-0.125000
G02 X40.378824 Y174.263572 Z-0.125000 I-21262.849738 J41646.314010
G02 X37.810400 Y172.956800 Z-0.125000 I-486.149119 J952.335230
G03 X37.827772 Y173.647235 Z-0.125000 I-23.011607 J0.924440
G03 X37.829000 Y174.417000 Z-0.125000 I-44.929120 J0.456540
G03 X37.770382 Y181.836775 Z-0.125000 I-1714.261016 J-9.832972
G02 X37.800600 Y189.262200 Z-0.125000 I262.681359 J2.643781
G03 X37.397715 Y198.603681 Z-0.125000 I-76.519543 J1.379251
G02 X36.923700 Y208.422200 Z-0.125000 I87.358112 J9.138149
G02 X39.940589 Y206.846383 Z-0.125000 I-499.450905 J-959.870289
G02 X42.949200 Y205.259700 Z-0.125000 I-331.085692 J-631.438660
G01 X42.949200 Y205.259700 Z-0.125000
G00 Z10.000000

(Change tool to Cylindrical cutter)
 
G00 Z10.000000
G00 X26.624700 Y213.833100

G01 Z-0.125000 F1000(Penetrate)
G01 X28.776100 Y212.704700 Z-0.125000 F1000.000000
G02 X28.351770 Y202.347433 Z-0.125000 I-48.263592 J-3.209999
G03 X27.405300 Y192.089600 Z-0.125000 I90.534674 J-13.526035
G02 X26.731164 Y180.036116 Z-0.125000 I-291.695944 J10.268593
G03 X27.086700 Y167.796400 Z-0.125000 I57.919737 J-4.442584
G02 X25.362603 Y166.999091 Z-0.125000 I-1049.458555 J2267.083078
G03 X23.643400 Y166.193000 Z-0.125000 I70.341883 J-152.258979
G03 X24.070325 Y178.393744 Z-0.125000 I-67.981718 J8.486641
G02 X23.731000 Y190.014800 Z-0.125000 I231.750641 J12.582412
G02 X23.968974 Y202.586807 Z-0.125000 I276.430204 J1.055747
G03 X23.970900 Y215.203600 Z-0.125000 I-151.849048 J6.331580
G02 X25.298772 Y214.517120 Z-0.125000 I-475.003420 J-920.435603
G03 X26.624700 Y213.833100 Z-0.125000 I216.065181 J417.200889
G01 X26.624700 Y213.833100 Z-0.125000
G00 Z10.000000

(Change tool to Cylindrical cutter)
 
G00 Z10.000000
G00 X33.633400 Y210.150800

G01 Z-0.125000 F1000(Penetrate)
G03 X34.017889 Y203.115672 Z-0.125000 I63.678912 J-0.047844 F1000.000000
G02 X34.488300 Y196.151200 Z-0.125000 I-81.638425 J-9.012340
G02 X34.365915 Y183.915193 Z-0.125000 I-175.973326 J-4.358526
G03 X35.203300 Y171.660700 Z-0.125000 I54.414377 J-2.437566
G02 X32.628457 Y170.403466 Z-0.125000 I-162.565929 J329.673235
G02 X30.043200 Y169.176100 Z-0.125000 I-87.995712 J182.013030
G03 X30.762627 Y182.080261 Z-0.125000 I-81.405848 J11.010638
G02 X30.870700 Y194.774700 Z-0.125000 I201.067298 J4.635912
G02 X31.559890 Y202.880416 Z-0.125000 I90.294170 J-3.595120
G03 X32.094600 Y210.960000 Z-0.125000 I-63.002447 J8.227013
G02 X32.863878 Y210.555764 Z-0.125000 I-56.779154 J-108.987238
G03 X33.633400 Y210.150800 Z-0.125000 I69.603356 J131.328376
G01 X33.633400 Y210.150800 Z-0.125000
G00 Z10.000000

(Change tool to Cylindrical cutter)
 
G00 Z10.000000
G00 X49.464100 Y201.872700

G01 Z-0.125000 F1000(Penetrate)
G03 X49.628415 Y197.979582 Z-0.125000 I125.610289 J3.351551 F1000.000000
G02 X49.804900 Y194.153300 Z-0.125000 I-164.894133 J-9.522852
G02 X50.051588 Y186.855720 Z-0.125000 I-3957.252954 J-137.424499
G03 X50.810300 Y179.580700 Z-0.125000 I51.493221 J1.693153
G01 X46.950900 Y177.615000 Z-0.125000
G03 X47.099036 Y185.413283 Z-0.125000 I-59.239198 J5.025858
G02 X47.035900 Y193.108000 Z-0.125000 I99.993709 J4.668083
G02 X47.238143 Y197.919814 Z-0.125000 I187.108675 J-5.454104
